%
(Header)
(Generated by gcodetools from Inkscape.)
(Using default header. To add your own header create file "header" in the output dir.)
M3
(Header end.)
G21 (All units in mm)

(Start cutting path id: path248)
(Change tool to Default tool)
 
G00 Z5.000000
G00 X11.553878 Y39.123577

G01 Z-0.125000 F100.0(Penetrate)
G01 X6.074900 Y37.258393 Z-0.125000 F400.000000
G01 X2.344531 Y31.779414 Z-0.125000
G01 X0.537634 Y22.570067 Z-0.125000
G01 X0.537634 Y17.091088 Z-0.125000
G01 X2.344531 Y7.881741 Z-0.125000
G01 X6.074900 Y2.373618 Z-0.125000
G01 X11.553878 Y0.537578 Z-0.125000
G01 X15.225960 Y0.537578 Z-0.125000
G01 X20.763226 Y2.373618 Z-0.125000
G01 X24.377020 Y7.881741 Z-0.125000
G01 X26.242205 Y17.091088 Z-0.125000
G01 X26.242205 Y22.570067 Z-0.125000
G01 X24.377020 Y31.779414 Z-0.125000
G01 X20.763226 Y37.258393 Z-0.125000
G01 X15.225960 Y39.123577 Z-0.125000
G01 X11.553878 Y39.123577 Z-0.125000
G00 Z5.000000

(End cutting path id: path248)


(Footer)
M5
G00 X0.0000 Y0.0000
M2
(Using default footer. To add your own footer create file "footer" in the output dir.)
(end)
%