%
(Header)
(Generated by gcodetools from Inkscape.)
(Using default header. To add your own header create file "header" in the output dir.)
M3
(Header end.)
G21 (All units in mm)

(Start cutting path id: path103)
(Change tool to Default tool)
 
G00 Z5.000000
G00 X2.366500 Y29.902006

G01 Z-0.125000 F100.0(Penetrate)
G01 X2.366500 Y31.764877 Z-0.125000 F400.000000
G01 X4.229371 Y35.374189 Z-0.125000
G01 X6.092241 Y37.237060 Z-0.125000
G01 X9.701553 Y39.099931 Z-0.125000
G01 X17.036607 Y39.099931 Z-0.125000
G01 X20.762348 Y37.237060 Z-0.125000
G01 X22.567004 Y35.374189 Z-0.125000
G01 X24.371660 Y31.764877 Z-0.125000
G01 X24.371660 Y28.039136 Z-0.125000
G01 X22.567004 Y24.429824 Z-0.125000
G01 X18.899477 Y18.899426 Z-0.125000
G01 X0.561844 Y0.561792 Z-0.125000
G01 X26.234531 Y0.561792 Z-0.125000
G00 Z5.000000

(End cutting path id: path103)


(Footer)
M5
G00 X0.0000 Y0.0000
M2
(Using default footer. To add your own footer create file "footer" in the output dir.)
(end)
%