%
(Header)
(Generated by gcodetools from Inkscape.)
(Using default header. To add your own header create file "header" in the output dir.)
M3
(Header end.)
G21 (All units in mm)

(Start cutting path id: path122)
(Change tool to Default tool)
 
G00 Z5.000000
G00 X4.372854 Y38.925608

G01 Z-0.125000 F100.0(Penetrate)
G01 X24.329825 Y38.925608 Z-0.125000 F400.000000
G01 X13.486153 Y24.390474 Z-0.125000
G01 X18.907989 Y24.390474 Z-0.125000
G01 X22.541772 Y22.544742 Z-0.125000
G01 X24.329825 Y20.699011 Z-0.125000
G01 X26.175556 Y15.277175 Z-0.125000
G01 X26.175556 Y11.643392 Z-0.125000
G01 X24.329825 Y6.192716 Z-0.125000
G01 X20.753720 Y2.558933 Z-0.125000
G01 X15.274205 Y0.742041 Z-0.125000
G01 X9.794690 Y0.742041 Z-0.125000
G01 X4.372854 Y2.558933 Z-0.125000
G01 X2.527123 Y4.375825 Z-0.125000
G01 X0.739071 Y8.009608 Z-0.125000
G00 Z5.000000

(End cutting path id: path122)


(Footer)
M5
G00 X0.0000 Y0.0000
M2
(Using default footer. To add your own footer create file "footer" in the output dir.)
(end)
%