%
(Header)
(Generated by gcodetools from Inkscape.)
(Using default header. To add your own header create file "header" in the output dir.)
M3
(Header end.)
G21 (All units in mm)

(Start cutting path id: path140)
(Change tool to Default tool)
 
G00 Z5.000000
G00 X18.904358 Y38.994784

G01 Z-0.125000 F100.0(Penetrate)
G01 X0.669519 Y13.408121 Z-0.125000 F400.000000
G01 X28.050721 Y13.408121 Z-0.125000
G00 Z5.000000

(End cutting path id: path140)


(Start cutting path id: path140)
(Change tool to Default tool)
 
G00 Z5.000000
G00 X18.904358 Y38.994784

G01 Z-0.125000 F100.0(Penetrate)
G01 X18.904358 Y0.672679 Z-0.125000 F400.000000
G00 Z5.000000

(End cutting path id: path140)


(Footer)
M5
G00 X0.0000 Y0.0000
M2
(Using default footer. To add your own footer create file "footer" in the output dir.)
(end)
%