%
(Header)
(Generated by gcodetools from Inkscape.)
(Using default header. To add your own header create file "header" in the output dir.)
M3
(Header end.)
G21 (All units in mm)

(Start cutting path id: path149)
(Change tool to Default tool)
 
G00 Z5.000000
G00 X22.611240 Y39.407423

G01 Z-0.125000 F100.0(Penetrate)
G01 X3.979528 Y39.407423 Z-0.125000 F400.000000
G01 X2.086782 Y22.609308 Z-0.125000
G01 X3.979528 Y24.502053 Z-0.125000
G01 X9.539467 Y26.335650 Z-0.125000
G01 X15.158555 Y26.335650 Z-0.125000
G01 X20.777643 Y24.502053 Z-0.125000
G01 X24.444838 Y20.716562 Z-0.125000
G01 X26.337583 Y15.156623 Z-0.125000
G01 X26.337583 Y11.430280 Z-0.125000
G01 X24.444838 Y5.840766 Z-0.125000
G01 X20.777643 Y2.114424 Z-0.125000
G01 X15.158555 Y0.251252 Z-0.125000
G01 X9.539467 Y0.251252 Z-0.125000
G01 X3.979528 Y2.114424 Z-0.125000
G01 X2.086782 Y3.977595 Z-0.125000
G01 X0.253185 Y7.703937 Z-0.125000
G00 Z5.000000

(End cutting path id: path149)


(Footer)
M5
G00 X0.0000 Y0.0000
M2
(Using default footer. To add your own footer create file "footer" in the output dir.)
(end)
%