%
(Header)
(Generated by gcodetools from Inkscape.)
(Using default header. To add your own header create file "header" in the output dir.)
M3
(Header end.)
G21 (All units in mm)

(Start cutting path id: path166)
(Change tool to Default tool)
 
G00 Z5.000000
G00 X22.592055 Y33.690125

G01 Z-0.125000 F100.0(Penetrate)
G01 X20.771389 Y37.390190 Z-0.125000 F400.000000
G01 X15.191926 Y39.269587 Z-0.125000
G01 X11.550593 Y39.269587 Z-0.125000
G01 X5.971131 Y37.390190 Z-0.125000
G01 X2.271066 Y31.869458 Z-0.125000
G01 X0.391668 Y22.589932 Z-0.125000
G01 X0.391668 Y13.310405 Z-0.125000
G01 X2.271066 Y5.939642 Z-0.125000
G01 X5.971131 Y2.239577 Z-0.125000
G01 X11.550593 Y0.389545 Z-0.125000
G01 X13.371260 Y0.389545 Z-0.125000
G01 X18.950722 Y2.239577 Z-0.125000
G01 X22.592055 Y5.939642 Z-0.125000
G01 X24.471453 Y11.489738 Z-0.125000
G01 X24.471453 Y13.310405 Z-0.125000
G01 X22.592055 Y18.889867 Z-0.125000
G01 X18.950722 Y22.589932 Z-0.125000
G01 X13.371260 Y24.469330 Z-0.125000
G01 X11.550593 Y24.469330 Z-0.125000
G01 X5.971131 Y22.589932 Z-0.125000
G01 X2.271066 Y18.889867 Z-0.125000
G01 X0.391668 Y13.310405 Z-0.125000
G00 Z5.000000

(End cutting path id: path166)


(Footer)
M5
G00 X0.0000 Y0.0000
M2
(Using default footer. To add your own footer create file "footer" in the output dir.)
(end)
%