%
(Header)
(Generated by gcodetools from Inkscape.)
(Using default header. To add your own header create file "header" in the output dir.)
M3
(Header end.)
G21 (All units in mm)

(Start cutting path id: path190)
(Change tool to Default tool)
 
G00 Z5.000000
G00 X26.322388 Y39.363293

G01 Z-0.125000 F100.0(Penetrate)
G01 X7.734103 Y0.298390 Z-0.125000 F400.000000
G00 Z5.000000

(End cutting path id: path190)


(Start cutting path id: path190)
(Change tool to Default tool)
 
G00 Z5.000000
G00 X0.298789 Y39.363293

G01 Z-0.125000 F100.0(Penetrate)
G01 X26.322388 Y39.363293 Z-0.125000 F400.000000
G00 Z5.000000

(End cutting path id: path190)


(Footer)
M5
G00 X0.0000 Y0.0000
M2
(Using default footer. To add your own footer create file "footer" in the output dir.)
(end)
%