%
(Header)
(Generated by gcodetools from Inkscape.)
(Using default header. To add your own header create file "header" in the output dir.)
M3
(Header end.)
G21 (All units in mm)

(Start cutting path id: path194)
(Change tool to Default tool)
 
G00 Z5.000000
G00 X9.737444 Y39.030331

G01 Z-0.125000 F100.0(Penetrate)
G01 X4.284696 Y37.174076 Z-0.125000 F400.000000
G01 X2.428441 Y33.519575 Z-0.125000
G01 X2.428441 Y29.865073 Z-0.125000
G01 X4.284696 Y26.210572 Z-0.125000
G01 X7.939198 Y24.412325 Z-0.125000
G01 X15.248201 Y22.556070 Z-0.125000
G01 X20.758957 Y20.699815 Z-0.125000
G01 X24.355450 Y17.103322 Z-0.125000
G01 X26.211705 Y13.390813 Z-0.125000
G01 X26.211705 Y7.938064 Z-0.125000
G01 X24.355450 Y4.283563 Z-0.125000
G01 X22.557203 Y2.456312 Z-0.125000
G01 X17.046447 Y0.629061 Z-0.125000
G01 X9.737444 Y0.629061 Z-0.125000
G01 X4.284696 Y2.456312 Z-0.125000
G01 X2.428441 Y4.283563 Z-0.125000
G01 X0.630195 Y7.938064 Z-0.125000
G01 X0.630195 Y13.390813 Z-0.125000
G01 X2.428441 Y17.103322 Z-0.125000
G01 X6.140951 Y20.699815 Z-0.125000
G01 X11.593699 Y22.556070 Z-0.125000
G01 X18.902702 Y24.412325 Z-0.125000
G01 X22.557203 Y26.210572 Z-0.125000
G01 X24.355450 Y29.865073 Z-0.125000
G01 X24.355450 Y33.519575 Z-0.125000
G01 X22.557203 Y37.174076 Z-0.125000
G01 X17.046447 Y39.030331 Z-0.125000
G01 X9.737444 Y39.030331 Z-0.125000
G00 Z5.000000

(End cutting path id: path194)


(Footer)
M5
G00 X0.0000 Y0.0000
M2
(Using default footer. To add your own footer create file "footer" in the output dir.)
(end)
%