%
(Header)
(Generated by gcodetools from Inkscape.)
(Using default header. To add your own header create file "header" in the output dir.)
M3
(Header end.)
G21 (All units in mm)

(Start cutting path id: path224)
(Change tool to Default tool)
 
G00 Z5.000000
G00 X24.373596 Y26.238950

G01 Z-0.125000 F100.0(Penetrate)
G01 X22.567950 Y20.705518 Z-0.125000 F400.000000
G01 X18.898411 Y17.094225 Z-0.125000
G01 X13.423225 Y15.230332 Z-0.125000
G01 X11.559332 Y15.230332 Z-0.125000
G01 X6.084147 Y17.094225 Z-0.125000
G01 X2.356361 Y20.705518 Z-0.125000
G01 X0.550715 Y26.238950 Z-0.125000
G01 X0.550715 Y28.044596 Z-0.125000
G01 X2.356361 Y33.578028 Z-0.125000
G01 X6.084147 Y37.247567 Z-0.125000
G01 X11.559332 Y39.111460 Z-0.125000
G01 X13.423225 Y39.111460 Z-0.125000
G01 X18.898411 Y37.247567 Z-0.125000
G01 X22.567950 Y33.578028 Z-0.125000
G01 X24.373596 Y26.238950 Z-0.125000
G01 X24.373596 Y17.094225 Z-0.125000
G01 X22.567950 Y7.891254 Z-0.125000
G01 X18.898411 Y2.386945 Z-0.125000
G01 X13.423225 Y0.552176 Z-0.125000
G01 X9.695439 Y0.552176 Z-0.125000
G01 X4.220254 Y2.386945 Z-0.125000
G01 X2.356361 Y6.056484 Z-0.125000
G00 Z5.000000

(End cutting path id: path224)


(Footer)
M5
G00 X0.0000 Y0.0000
M2
(Using default footer. To add your own footer create file "footer" in the output dir.)
(end)
%