%
(Header)
(Generated by gcodetools from Inkscape.)
(Using default header. To add your own header create file "header" in the output dir.)
M3
(Header end.)
G21 (All units in mm)

(Start cutting path id: path122)
(Change tool to Default tool)

G00 Z5.000000
G00 X15.000004 Y39.074697

G01 Z-1.000000 F100.0(Penetrate)
G01 X0.132420 Y0.017790 Z-1.000000 F400.000000
G00 Z5.000000

(End cutting path id: path122)


(Start cutting path id: path122)
(Change tool to Default tool)

G00 Z5.000000
G00 X5.678265 Y12.997427

G01 Z-1.000000 F100.0(Penetrate)
G01 X24.321743 Y12.997427 Z-1.000000 F400.000000
G00 Z5.000000

(End cutting path id: path122)


(Start cutting path id: path122)
(Change tool to Default tool)

G00 Z5.000000
G00 X15.000004 Y39.074697

G01 Z-1.000000 F100.0(Penetrate)
G01 X29.867588 Y0.017790 Z-1.000000 F400.000000
G00 Z5.000000

(End cutting path id: path122)


(Footer)
M5
G00 X0.0000 Y0.0000
M2
(Using default footer. To add your own footer create file "footer" in the output dir.)
(end)
%