%
(Header)
(Generated by gcodetools from Inkscape.)
(Using default header. To add your own header create file "header" in the output dir.)
M3
(Header end.)
G21 (All units in mm)

(Start cutting path id: path1225)
(Change tool to Default tool)
 
G00 Z5.000000
G00 X0.134588 Y39.000093

G01 Z-0.125000 F100.0(Penetrate)
G01 X0.134588 Y-0.063627 Z-0.125000 F400.000000
G00 Z5.000000

(End cutting path id: path1225)


(Start cutting path id: path1225)
(Change tool to Default tool)
 
G00 Z5.000000
G00 X0.134588 Y20.353363

G01 Z-0.125000 F100.0(Penetrate)
G01 X16.893042 Y20.353363 Z-0.125000 F400.000000
G01 X22.439854 Y18.524095 Z-0.125000
G01 X24.328130 Y16.694827 Z-0.125000
G01 X26.216407 Y12.918274 Z-0.125000
G01 X26.216407 Y7.371462 Z-0.125000
G01 X24.328130 Y3.653918 Z-0.125000
G01 X22.439854 Y1.795146 Z-0.125000
G01 X16.893042 Y-0.063627 Z-0.125000
G01 X0.134588 Y-0.063627 Z-0.125000
G00 Z5.000000

(End cutting path id: path1225)


(Start cutting path id: path1225)
(Change tool to Default tool)
 
G00 Z5.000000
G00 X0.134588 Y39.000093

G01 Z-0.125000 F100.0(Penetrate)
G01 X16.893042 Y39.000093 Z-0.125000 F400.000000
G01 X22.439854 Y37.111817 Z-0.125000
G01 X24.328130 Y35.223540 Z-0.125000
G01 X26.216407 Y31.565004 Z-0.125000
G01 X26.216407 Y27.788452 Z-0.125000
G01 X24.328130 Y24.129916 Z-0.125000
G01 X22.439854 Y22.241639 Z-0.125000
G01 X16.893042 Y20.353363 Z-0.125000
G00 Z5.000000

(End cutting path id: path1225)


(Footer)
M5
G00 X0.0000 Y0.0000
M2
(Using default footer. To add your own footer create file "footer" in the output dir.)
(end)
%