%
(Header)
(Generated by gcodetools from Inkscape.)
(Using default header. To add your own header create file "header" in the output dir.)
M3
(Header end.)
G21 (All units in mm)

(Start cutting path id: path1612)
(Change tool to Default tool)
 
G00 Z5.000000
G00 X27.976990 Y29.902190

G01 Z-0.125000 F100.0(Penetrate)
G01 X26.091766 Y33.613725 Z-0.125000 F400.000000
G01 X22.380231 Y37.325259 Z-0.125000
G01 X18.668697 Y39.210483 Z-0.125000
G01 X11.245627 Y39.210483 Z-0.125000
G01 X7.534092 Y37.325259 Z-0.125000
G01 X3.822558 Y33.613725 Z-0.125000
G01 X1.937334 Y29.902190 Z-0.125000
G01 X0.111023 Y24.364344 Z-0.125000
G01 X0.111023 Y15.056051 Z-0.125000
G01 X1.937334 Y9.518206 Z-0.125000
G01 X3.822558 Y5.777214 Z-0.125000
G01 X7.534092 Y2.065680 Z-0.125000
G01 X11.245627 Y0.209912 Z-0.125000
G01 X18.668697 Y0.209912 Z-0.125000
G01 X22.380231 Y2.065680 Z-0.125000
G01 X26.091766 Y5.777214 Z-0.125000
G01 X27.976990 Y9.518206 Z-0.125000
G00 Z5.000000

(End cutting path id: path1612)


(Footer)
M5
G00 X0.0000 Y0.0000
M2
(Using default footer. To add your own footer create file "footer" in the output dir.)
(end)
%