%
(Header)
(Generated by gcodetools from Inkscape.)
(Using default header. To add your own header create file "header" in the output dir.)
M3
(Header end.)
G21 (All units in mm)

(Start cutting path id: path1652)
(Change tool to Default tool)
 
G00 Z5.000000
G00 X0.178962 Y39.153703

G01 Z-0.125000 F100.0(Penetrate)
G01 X0.178962 Y0.178639 Z-0.125000 F400.000000
G00 Z5.000000

(End cutting path id: path1652)


(Start cutting path id: path1652)
(Change tool to Default tool)
 
G00 Z5.000000
G00 X0.178962 Y39.153703

G01 Z-0.125000 F100.0(Penetrate)
G01 X13.190275 Y39.153703 Z-0.125000 F400.000000
G01 X18.783373 Y37.269712 Z-0.125000
G01 X22.433606 Y33.560605 Z-0.125000
G01 X24.317597 Y29.851498 Z-0.125000
G01 X26.201588 Y24.317274 Z-0.125000
G01 X26.201588 Y15.015068 Z-0.125000
G01 X24.317597 Y9.480844 Z-0.125000
G01 X22.433606 Y5.742300 Z-0.125000
G01 X18.783373 Y2.033192 Z-0.125000
G01 X13.190275 Y0.178639 Z-0.125000
G01 X0.178962 Y0.178639 Z-0.125000
G00 Z5.000000

(End cutting path id: path1652)


(Footer)
M5
G00 X0.0000 Y0.0000
M2
(Using default footer. To add your own footer create file "footer" in the output dir.)
(end)
%