%
(Header)
(Generated by gcodetools from Inkscape.)
(Using default header. To add your own header create file "header" in the output dir.)
M3
(Header end.)
G21 (All units in mm)

(Start cutting path id: path1669)
(Change tool to Default tool)
 
G00 Z5.000000
G00 X0.227814 Y39.105648

G01 Z-0.125000 F100.0(Penetrate)
G01 X0.227814 Y0.227818 Z-0.125000 F400.000000
G00 Z5.000000

(End cutting path id: path1669)


(Start cutting path id: path1669)
(Change tool to Default tool)
 
G00 Z5.000000
G00 X0.227814 Y0.227818

G01 Z-0.125000 F100.0(Penetrate)
G01 X24.306228 Y0.227818 Z-0.125000 F400.000000
G00 Z5.000000

(End cutting path id: path1669)


(Start cutting path id: path1669)
(Change tool to Default tool)
 
G00 Z5.000000
G00 X0.227814 Y20.547650

G01 Z-0.125000 F100.0(Penetrate)
G01 X15.027230 Y20.547650 Z-0.125000 F400.000000
G00 Z5.000000

(End cutting path id: path1669)


(Start cutting path id: path1669)
(Change tool to Default tool)
 
G00 Z5.000000
G00 X0.227814 Y39.105648

G01 Z-0.125000 F100.0(Penetrate)
G01 X24.306228 Y39.105648 Z-0.125000 F400.000000
G00 Z5.000000

(End cutting path id: path1669)


(Footer)
M5
G00 X0.0000 Y0.0000
M2
(Using default footer. To add your own footer create file "footer" in the output dir.)
(end)
%