%
(Header)
(Generated by gcodetools from Inkscape.)
(Using default header. To add your own header create file "header" in the output dir.)
M3
(Header end.)
G21 (All units in mm)

(Start cutting path id: path1681)
(Change tool to Default tool)
 
G00 Z5.000000
G00 X0.144636 Y39.338747

G01 Z-0.125000 F100.0(Penetrate)
G01 X0.144636 Y0.160132 Z-0.125000 F400.000000
G00 Z5.000000

(End cutting path id: path1681)


(Start cutting path id: path1681)
(Change tool to Default tool)
 
G00 Z5.000000
G00 X0.144636 Y20.637172

G01 Z-0.125000 F100.0(Penetrate)
G01 X15.058549 Y20.637172 Z-0.125000 F400.000000
G00 Z5.000000

(End cutting path id: path1681)


(Start cutting path id: path1681)
(Change tool to Default tool)
 
G00 Z5.000000
G00 X0.144636 Y39.338747

G01 Z-0.125000 F100.0(Penetrate)
G01 X24.409336 Y39.338747 Z-0.125000 F400.000000
G00 Z5.000000

(End cutting path id: path1681)


(Footer)
M5
G00 X0.0000 Y0.0000
M2
(Using default footer. To add your own footer create file "footer" in the output dir.)
(end)
%