%
(Header)
(Generated by gcodetools from Inkscape.)
(Using default header. To add your own header create file "header" in the output dir.)
M3
(Header end.)
G21 (All units in mm)

(Start cutting path id: path1687)
(Change tool to Default tool)
 
G00 Z5.000000
G00 X28.240910 Y29.788394

G01 Z-0.125000 F100.0(Penetrate)
G01 X26.345689 Y33.519610 Z-0.125000 F400.000000
G01 X22.614472 Y37.250827 Z-0.125000
G01 X18.883256 Y39.146048 Z-0.125000
G01 X11.420823 Y39.146048 Z-0.125000
G01 X7.689606 Y37.250827 Z-0.125000
G01 X3.958390 Y33.519610 Z-0.125000
G01 X2.063169 Y29.788394 Z-0.125000
G01 X0.227174 Y24.221182 Z-0.125000
G01 X0.227174 Y14.863528 Z-0.125000
G01 X2.063169 Y9.296316 Z-0.125000
G01 X3.958390 Y5.535487 Z-0.125000
G01 X7.689606 Y1.804270 Z-0.125000
G01 X11.420823 Y-0.061338 Z-0.125000
G01 X18.883256 Y-0.061338 Z-0.125000
G01 X22.614472 Y1.804270 Z-0.125000
G01 X26.345689 Y5.535487 Z-0.125000
G01 X28.240910 Y9.296316 Z-0.125000
G01 X28.240910 Y14.863528 Z-0.125000
G00 Z5.000000

(End cutting path id: path1687)


(Start cutting path id: path1687)
(Change tool to Default tool)
 
G00 Z5.000000
G00 X18.883256 Y14.863528

G01 Z-0.125000 F100.0(Penetrate)
G01 X28.240910 Y14.863528 Z-0.125000 F400.000000
G00 Z5.000000

(End cutting path id: path1687)


(Footer)
M5
G00 X0.0000 Y0.0000
M2
(Using default footer. To add your own footer create file "footer" in the output dir.)
(end)
%