%
(Header)
(Generated by gcodetools from Inkscape.)
(Using default header. To add your own header create file "header" in the output dir.)
M3
(Header end.)
G21 (All units in mm)

(Start cutting path id: path1729)
(Change tool to Default tool)
 
G00 Z5.000000
G00 X18.829224 Y39.133657

G01 Z-0.125000 F100.0(Penetrate)
G01 X18.829224 Y9.428834 Z-0.125000 F400.000000
G01 X17.002141 Y3.829711 Z-0.125000
G01 X15.175059 Y1.973159 Z-0.125000
G01 X11.403018 Y0.116608 Z-0.125000
G01 X7.748853 Y0.116608 Z-0.125000
G01 X3.976812 Y1.973159 Z-0.125000
G01 X2.149730 Y3.829711 Z-0.125000
G01 X0.322648 Y9.428834 Z-0.125000
G01 X0.322648 Y13.082999 Z-0.125000
G00 Z5.000000

(End cutting path id: path1729)


(Footer)
M5
G00 X0.0000 Y0.0000
M2
(Using default footer. To add your own footer create file "footer" in the output dir.)
(end)
%