%
(Header)
(Generated by gcodetools from Inkscape.)
(Using default header. To add your own header create file "header" in the output dir.)
M3
(Header end.)
G21 (All units in mm)

(Start cutting path id: path383)
(Change tool to Default tool)
 
G00 Z5.000000
G00 X0.227726 Y39.432889

G01 Z-0.125000 F100.0(Penetrate)
G01 X0.227726 Y0.226498 Z-0.125000 F400.000000
G00 Z5.000000

(End cutting path id: path383)


(Start cutting path id: path383)
(Change tool to Default tool)
 
G00 Z5.000000
G00 X0.227726 Y0.226498

G01 Z-0.125000 F100.0(Penetrate)
G01 X22.614457 Y0.226498 Z-0.125000 F400.000000
G00 Z5.000000

(End cutting path id: path383)


(Footer)
M5
G00 X0.0000 Y0.0000
M2
(Using default footer. To add your own footer create file "footer" in the output dir.)
(end)
%