%
(Header)
(Generated by gcodetools from Inkscape.)
(Using default header. To add your own header create file "header" in the output dir.)
M3
(Header end.)
G21 (All units in mm)

(Start cutting path id: path404)
(Change tool to Default tool)
 
G00 Z5.000000
G00 X11.421336 Y39.433826

G01 Z-0.125000 F100.0(Penetrate)
G01 X7.690215 Y37.538653 Z-0.125000 F400.000000
G01 X3.959093 Y33.807531 Z-0.125000
G01 X2.063920 Y30.076409 Z-0.125000
G01 X0.227971 Y24.509339 Z-0.125000
G01 X0.227971 Y15.151922 Z-0.125000
G01 X2.063920 Y9.584852 Z-0.125000
G01 X3.959093 Y5.824118 Z-0.125000
G01 X7.690215 Y2.092996 Z-0.125000
G01 X11.421336 Y0.227435 Z-0.125000
G01 X18.883580 Y0.227435 Z-0.125000
G01 X22.614702 Y2.092996 Z-0.125000
G01 X26.345823 Y5.824118 Z-0.125000
G01 X28.240996 Y9.584852 Z-0.125000
G01 X30.076945 Y15.151922 Z-0.125000
G01 X30.076945 Y24.509339 Z-0.125000
G01 X28.240996 Y30.076409 Z-0.125000
G01 X26.345823 Y33.807531 Z-0.125000
G01 X22.614702 Y37.538653 Z-0.125000
G01 X18.883580 Y39.433826 Z-0.125000
G01 X11.421336 Y39.433826 Z-0.125000
G00 Z5.000000

(End cutting path id: path404)


(Footer)
M5
G00 X0.0000 Y0.0000
M2
(Using default footer. To add your own footer create file "footer" in the output dir.)
(end)
%