%
(Header)
(Generated by gcodetools from Inkscape.)
(Using default header. To add your own header create file "header" in the output dir.)
M3
(Header end.)
G21 (All units in mm)

(Start cutting path id: path426)
(Change tool to Default tool)
 
G00 Z5.000000
G00 X0.227752 Y39.433124

G01 Z-0.125000 F100.0(Penetrate)
G01 X0.227752 Y0.226733 Z-0.125000 F400.000000
G00 Z5.000000

(End cutting path id: path426)


(Start cutting path id: path426)
(Change tool to Default tool)
 
G00 Z5.000000
G00 X0.227752 Y39.433124

G01 Z-0.125000 F100.0(Penetrate)
G01 X17.047412 Y39.433124 Z-0.125000 F400.000000
G01 X22.614483 Y37.537951 Z-0.125000
G01 X24.509656 Y35.642778 Z-0.125000
G01 X26.404829 Y31.970880 Z-0.125000
G01 X26.404829 Y26.344586 Z-0.125000
G01 X24.509656 Y22.613464 Z-0.125000
G01 X22.614483 Y20.718291 Z-0.125000
G01 X17.047412 Y18.882342 Z-0.125000
G01 X0.227752 Y18.882342 Z-0.125000
G00 Z5.000000

(End cutting path id: path426)


(Footer)
M5
G00 X0.0000 Y0.0000
M2
(Using default footer. To add your own footer create file "footer" in the output dir.)
(end)
%