%
(Header)
(Generated by gcodetools from Inkscape.)
(Using default header. To add your own header create file "header" in the output dir.)
M3
(Header end.)
G21 (All units in mm)

(Start cutting path id: path438)
(Change tool to Default tool)
 
G00 Z5.000000
G00 X11.412563 Y39.434133

G01 Z-0.125000 F100.0(Penetrate)
G01 X7.684299 Y37.540412 Z-0.125000 F400.000000
G01 X3.956036 Y33.812148 Z-0.125000
G01 X2.062315 Y30.083885 Z-0.125000
G01 X0.227773 Y24.521080 Z-0.125000
G01 X0.227773 Y15.170832 Z-0.125000
G01 X2.062315 Y9.608027 Z-0.125000
G01 X3.956036 Y5.850174 Z-0.125000
G01 X7.684299 Y2.121911 Z-0.125000
G01 X11.412563 Y0.257779 Z-0.125000
G01 X18.869089 Y0.257779 Z-0.125000
G01 X22.597352 Y2.121911 Z-0.125000
G01 X26.325616 Y5.850174 Z-0.125000
G01 X28.219337 Y9.608027 Z-0.125000
G01 X30.053879 Y15.170832 Z-0.125000
G01 X30.053879 Y24.521080 Z-0.125000
G01 X28.219337 Y30.083885 Z-0.125000
G01 X26.325616 Y33.812148 Z-0.125000
G01 X22.597352 Y37.540412 Z-0.125000
G01 X18.869089 Y39.434133 Z-0.125000
G01 X11.412563 Y39.434133 Z-0.125000
G00 Z5.000000

(End cutting path id: path438)


(Start cutting path id: path438)
(Change tool to Default tool)
 
G00 Z5.000000
G00 X16.975368 Y7.714306

G01 Z-0.125000 F100.0(Penetrate)
G01 X28.219337 Y-3.470484 Z-0.125000 F400.000000
G00 Z5.000000

(End cutting path id: path438)


(Footer)
M5
G00 X0.0000 Y0.0000
M2
(Using default footer. To add your own footer create file "footer" in the output dir.)
(end)
%