%
(Header)
(Generated by gcodetools from Inkscape.)
(Using default header. To add your own header create file "header" in the output dir.)
M3
(Header end.)
G21 (All units in mm)

(Start cutting path id: path464)
(Change tool to Default tool)
 
G00 Z5.000000
G00 X0.227921 Y39.433209

G01 Z-0.125000 F100.0(Penetrate)
G01 X0.227921 Y0.226819 Z-0.125000 F400.000000
G00 Z5.000000

(End cutting path id: path464)


(Start cutting path id: path464)
(Change tool to Default tool)
 
G00 Z5.000000
G00 X13.316460 Y20.718376

G01 Z-0.125000 F100.0(Penetrate)
G01 X26.404998 Y0.226819 Z-0.125000 F400.000000
G00 Z5.000000

(End cutting path id: path464)


(Start cutting path id: path464)
(Change tool to Default tool)
 
G00 Z5.000000
G00 X0.227921 Y39.433209

G01 Z-0.125000 F100.0(Penetrate)
G01 X17.047581 Y39.433209 Z-0.125000 F400.000000
G01 X22.614652 Y37.538036 Z-0.125000
G01 X24.509825 Y35.642863 Z-0.125000
G01 X26.404998 Y31.970966 Z-0.125000
G01 X26.404998 Y28.180620 Z-0.125000
G01 X24.509825 Y24.508722 Z-0.125000
G01 X22.614652 Y22.613549 Z-0.125000
G01 X17.047581 Y20.718376 Z-0.125000
G01 X0.227921 Y20.718376 Z-0.125000
G00 Z5.000000

(End cutting path id: path464)


(Footer)
M5
G00 X0.0000 Y0.0000
M2
(Using default footer. To add your own footer create file "footer" in the output dir.)
(end)
%