%
(Header)
(Generated by gcodetools from Inkscape.)
(Using default header. To add your own header create file "header" in the output dir.)
M3
(Header end.)
G21 (All units in mm)

(Start cutting path id: path479)
(Change tool to Default tool)
 
G00 Z5.000000
G00 X26.345920 Y33.806593

G01 Z-0.125000 F100.0(Penetrate)
G01 X22.614798 Y37.537715 Z-0.125000 F400.000000
G01 X16.988504 Y39.432887 Z-0.125000
G01 X9.526260 Y39.432887 Z-0.125000
G01 X3.959190 Y37.537715 Z-0.125000
G01 X0.228068 Y33.806593 Z-0.125000
G01 X0.228068 Y30.075471 Z-0.125000
G01 X2.064017 Y26.344349 Z-0.125000
G01 X3.959190 Y24.508400 Z-0.125000
G01 X7.690311 Y22.613228 Z-0.125000
G01 X18.883677 Y18.882106 Z-0.125000
G01 X22.614798 Y17.046157 Z-0.125000
G01 X24.450747 Y15.150984 Z-0.125000
G01 X26.345920 Y11.419862 Z-0.125000
G01 X26.345920 Y5.823180 Z-0.125000
G01 X22.614798 Y2.092058 Z-0.125000
G01 X16.988504 Y0.226497 Z-0.125000
G01 X9.526260 Y0.226497 Z-0.125000
G01 X3.959190 Y2.092058 Z-0.125000
G01 X0.228068 Y5.823180 Z-0.125000
G00 Z5.000000

(End cutting path id: path479)


(Footer)
M5
G00 X0.0000 Y0.0000
M2
(Using default footer. To add your own footer create file "footer" in the output dir.)
(end)
%