%
(Header)
(Generated by gcodetools from Inkscape.)
(Using default header. To add your own header create file "header" in the output dir.)
M3
(Header end.)
G21 (All units in mm)

(Start cutting path id: path500)
(Change tool to Default tool)
 
G00 Z5.000000
G00 X13.257378 Y39.433559

G01 Z-0.125000 F100.0(Penetrate)
G01 X13.257378 Y0.227169 Z-0.125000 F400.000000
G00 Z5.000000

(End cutting path id: path500)


(Start cutting path id: path500)
(Change tool to Default tool)
 
G00 Z5.000000
G00 X0.228064 Y39.433559

G01 Z-0.125000 F100.0(Penetrate)
G01 X26.345916 Y39.433559 Z-0.125000 F400.000000
G00 Z5.000000

(End cutting path id: path500)


(Footer)
M5
G00 X0.0000 Y0.0000
M2
(Using default footer. To add your own footer create file "footer" in the output dir.)
(end)
%