%
(Header)
(Generated by gcodetools from Inkscape.)
(Using default header. To add your own header create file "header" in the output dir.)
M3
(Header end.)
G21 (All units in mm)

(Start cutting path id: path504)
(Change tool to Default tool)
 
G00 Z5.000000
G00 X0.228025 Y39.433383

G01 Z-0.125000 F100.0(Penetrate)
G01 X0.228025 Y11.420357 Z-0.125000 F400.000000
G01 X2.123198 Y5.823675 Z-0.125000
G01 X5.854320 Y2.092553 Z-0.125000
G01 X11.480614 Y0.226992 Z-0.125000
G01 X15.152512 Y0.226992 Z-0.125000
G01 X20.778807 Y2.092553 Z-0.125000
G01 X24.509928 Y5.823675 Z-0.125000
G01 X26.405101 Y11.420357 Z-0.125000
G01 X26.405101 Y39.433383 Z-0.125000
G00 Z5.000000

(End cutting path id: path504)


(Footer)
M5
G00 X0.0000 Y0.0000
M2
(Using default footer. To add your own footer create file "footer" in the output dir.)
(end)
%