%
(Header)
(Generated by gcodetools from Inkscape.)
(Using default header. To add your own header create file "header" in the output dir.)
M3
(Header end.)
G21 (All units in mm)

(Start cutting path id: path515)
(Change tool to Default tool)
 
G00 Z5.000000
G00 X0.227897 Y39.433406

G01 Z-0.125000 F100.0(Penetrate)
G01 X15.152384 Y0.227016 Z-0.125000 F400.000000
G00 Z5.000000

(End cutting path id: path515)


(Start cutting path id: path515)
(Change tool to Default tool)
 
G00 Z5.000000
G00 X30.076871 Y39.433406

G01 Z-0.125000 F100.0(Penetrate)
G01 X15.152384 Y0.227016 Z-0.125000 F400.000000
G00 Z5.000000

(End cutting path id: path515)


(Footer)
M5
G00 X0.0000 Y0.0000
M2
(Using default footer. To add your own footer create file "footer" in the output dir.)
(end)
%