%
(Header)
(Generated by gcodetools from Inkscape.)
(Using default header. To add your own header create file "header" in the output dir.)
M3
(Header end.)
G21 (All units in mm)

(Start cutting path id: path583)
(Change tool to Default tool)
 
G00 Z5.000000
G00 X26.345865 Y39.433816

G01 Z-0.125000 F100.0(Penetrate)
G01 X0.228013 Y0.227425 Z-0.125000 F400.000000
G00 Z5.000000

(End cutting path id: path583)


(Start cutting path id: path583)
(Change tool to Default tool)
 
G00 Z5.000000
G00 X0.228013 Y0.227425

G01 Z-0.125000 F100.0(Penetrate)
G01 X26.345865 Y0.227425 Z-0.125000 F400.000000
G00 Z5.000000

(End cutting path id: path583)


(Start cutting path id: path583)
(Change tool to Default tool)
 
G00 Z5.000000
G00 X0.228013 Y39.433816

G01 Z-0.125000 F100.0(Penetrate)
G01 X26.345865 Y39.433816 Z-0.125000 F400.000000
G00 Z5.000000

(End cutting path id: path583)


(Footer)
M5
G00 X0.0000 Y0.0000
M2
(Using default footer. To add your own footer create file "footer" in the output dir.)
(end)
%