%
(Header)
(Generated by gcodetools from Inkscape.)
(Using default header. To add your own header create file "header" in the output dir.)
M3
(Header end.)
G21 (All units in mm)

(Start cutting path id: path158)
(Change tool to Default tool)

G00 Z0.200000
G00 X1.854380 Y16.945800

G01 Z-0.200000 F10000.0(Penetrate)
G01 X1.854380 Y0.131000 Z-0.200000 F10000.000000
G00 Z0.200000

(End cutting path id: path158)


(Start cutting path id: path158)
(Change tool to Default tool)

G00 Z0.200000
G00 X1.854380 Y8.919400

G01 Z-0.200000 F10000.0(Penetrate)
G01 X9.067980 Y8.919400 Z-0.200000 F10000.000000
G01 X11.455580 Y8.132000 Z-0.200000
G01 X12.268380 Y7.344600 Z-0.200000
G01 X13.081180 Y5.719000 Z-0.200000
G01 X13.081180 Y3.331400 Z-0.200000
G01 X12.268380 Y1.731200 Z-0.200000
G01 X11.455580 Y0.931100 Z-0.200000
G01 X9.067980 Y0.131000 Z-0.200000
G01 X1.854380 Y0.131000 Z-0.200000
G00 Z0.200000

(End cutting path id: path158)


(Start cutting path id: path158)
(Change tool to Default tool)

G00 Z0.200000
G00 X1.854380 Y16.945800

G01 Z-0.200000 F10000.0(Penetrate)
G01 X9.067980 Y16.945800 Z-0.200000 F10000.000000
G01 X11.455580 Y16.133000 Z-0.200000
G01 X12.268380 Y15.320200 Z-0.200000
G01 X13.081180 Y13.745400 Z-0.200000
G01 X13.081180 Y12.119800 Z-0.200000
G01 X12.268380 Y10.545000 Z-0.200000
G01 X11.455580 Y9.732200 Z-0.200000
G01 X9.067980 Y8.919400 Z-0.200000
G00 Z0.200000

(End cutting path id: path158)


(Footer)
M5
G00 X0.0000 Y0.0000
M2
(Using default footer. To add your own footer create file "footer" in the output dir.)
(end)
%