%
(Header)
(Generated by gcodetools from Inkscape.)
(Using default header. To add your own header create file "header" in the output dir.)
M3
(Header end.)
G21 (All units in mm)

(Start cutting path id: path225)
(Change tool to Default tool)

G00 Z0.200000
G00 X16.814800 Y12.932600

G01 Z-0.200000 F10000.0(Penetrate)
G01 X16.002000 Y14.532800 Z-0.200000 F10000.000000
G01 X14.401800 Y16.133000 Z-0.200000
G01 X12.801600 Y16.945800 Z-0.200000
G01 X9.601200 Y16.945800 Z-0.200000
G01 X8.001000 Y16.133000 Z-0.200000
G01 X6.400800 Y14.532800 Z-0.200000
G01 X5.588000 Y12.932600 Z-0.200000
G01 X4.800600 Y10.545000 Z-0.200000
G01 X4.800600 Y6.531800 Z-0.200000
G01 X5.588000 Y4.144200 Z-0.200000
G01 X6.400800 Y2.531300 Z-0.200000
G01 X8.001000 Y0.931100 Z-0.200000
G01 X9.601200 Y0.131000 Z-0.200000
G01 X12.801600 Y0.131000 Z-0.200000
G01 X14.401800 Y0.931100 Z-0.200000
G01 X16.002000 Y2.531300 Z-0.200000
G01 X16.814800 Y4.144200 Z-0.200000
G00 Z0.200000

(End cutting path id: path225)


(Footer)
M5
G00 X0.0000 Y0.0000
M2
(Using default footer. To add your own footer create file "footer" in the output dir.)
(end)
%