%
(Header)
(Generated by gcodetools from Inkscape.)
(Using default header. To add your own header create file "header" in the output dir.)
M3
(Header end.)
G21 (All units in mm)

(Start cutting path id: path223)
(Change tool to Default tool)

G00 Z0.200000
G00 X5.265539 Y16.814800

G01 Z-0.200000 F10000.0(Penetrate)
G01 X5.265539 Y0.000000 Z-0.200000 F10000.000000
G00 Z0.200000

(End cutting path id: path223)


(Start cutting path id: path223)
(Change tool to Default tool)

G00 Z0.200000
G00 X5.265539 Y16.814800

G01 Z-0.200000 F10000.0(Penetrate)
G01 X10.878939 Y16.814800 Z-0.200000 F10000.000000
G01 X13.291939 Y16.002000 Z-0.200000
G01 X14.866739 Y14.401800 Z-0.200000
G01 X15.679539 Y12.801600 Z-0.200000
G01 X16.492339 Y10.414000 Z-0.200000
G01 X16.492339 Y6.400800 Z-0.200000
G01 X15.679539 Y4.013200 Z-0.200000
G01 X14.866739 Y2.400300 Z-0.200000
G01 X13.291939 Y0.800100 Z-0.200000
G01 X10.878939 Y0.000000 Z-0.200000
G01 X5.265539 Y0.000000 Z-0.200000
G00 Z0.200000

(End cutting path id: path223)


(Footer)
M5
G00 X0.0000 Y0.0000
M2
(Using default footer. To add your own footer create file "footer" in the output dir.)
(end)
%