%
(Header)
(Generated by gcodetools from Inkscape.)
(Using default header. To add your own header create file "header" in the output dir.)
M3
(Header end.)
G21 (All units in mm)

(Start cutting path id: path219)
(Change tool to Default tool)

G00 Z0.200000
G00 X5.588000 Y16.945800

G01 Z-0.200000 F10000.0(Penetrate)
G01 X5.588000 Y0.131000 Z-0.200000 F10000.000000
G00 Z0.200000

(End cutting path id: path219)


(Start cutting path id: path219)
(Change tool to Default tool)

G00 Z0.200000
G00 X5.588000 Y8.919400

G01 Z-0.200000 F10000.0(Penetrate)
G01 X11.988800 Y8.919400 Z-0.200000 F10000.000000
G00 Z0.200000

(End cutting path id: path219)


(Start cutting path id: path219)
(Change tool to Default tool)

G00 Z0.200000
G00 X5.588000 Y16.945800

G01 Z-0.200000 F10000.0(Penetrate)
G01 X16.002000 Y16.945800 Z-0.200000 F10000.000000
G00 Z0.200000

(End cutting path id: path219)


(Footer)
M5
G00 X0.0000 Y0.0000
M2
(Using default footer. To add your own footer create file "footer" in the output dir.)
(end)
%