%
(Header)
(Generated by gcodetools from Inkscape.)
(Using default header. To add your own header create file "header" in the output dir.)
M3
(Header end.)
G21 (All units in mm)

(Start cutting path id: path211)
(Change tool to Default tool)

G00 Z0.200000
G00 X11.666339 Y16.814800

G01 Z-0.200000 F10000.0(Penetrate)
G01 X11.666339 Y4.013200 Z-0.200000 F10000.000000
G01 X10.878939 Y1.600200 Z-0.200000
G01 X10.091539 Y0.800100 Z-0.200000
G01 X8.465939 Y0.000000 Z-0.200000
G01 X6.891139 Y0.000000 Z-0.200000
G01 X5.265539 Y0.800100 Z-0.200000
G01 X4.478139 Y1.600200 Z-0.200000
G01 X3.690739 Y4.013200 Z-0.200000
G01 X3.690739 Y5.588000 Z-0.200000
G00 Z0.200000

(End cutting path id: path211)


(Footer)
M5
G00 X0.0000 Y0.0000
M2
(Using default footer. To add your own footer create file "footer" in the output dir.)
(end)
%