%
(Header)
(Generated by gcodetools from Inkscape.)
(Using default header. To add your own header create file "header" in the output dir.)
M3
(Header end.)
G21 (All units in mm)

(Start cutting path id: path219)
(Change tool to Default tool)

G00 Z0.200000
G00 X5.588000 Y16.945800

G01 Z-0.200000 F10000.0(Penetrate)
G01 X5.588000 Y0.131000 Z-0.200000 F10000.000000
G00 Z0.200000

(End cutting path id: path219)


(Start cutting path id: path207)
(Change tool to Default tool)

G00 Z0.200000
G00 X5.588000 Y0.131000

G01 Z-0.200000 F10000.0(Penetrate)
G01 X15.189200 Y0.131000 Z-0.200000 F10000.000000
G00 Z0.200000

(End cutting path id: path207)


(Start cutting path id: path197)
(Change tool to Default tool)

G00 Z0.200000
G00 X11.666339 Y3.200400

G01 Z-0.200000 F10000.0(Penetrate)
G01 X16.492339 Y-1.600200 Z-0.200000 F10000.000000
G00 Z0.200000

(End cutting path id: path197)


(Start cutting path id: path217)
(Change tool to Default tool)

G00 Z0.200000
G00 X12.479139 Y6.400800

G01 Z-0.200000 F10000.0(Penetrate)
G01 X16.492339 Y6.400800 Z-0.200000 F10000.000000
G00 Z0.200000

(End cutting path id: path217)


(Start cutting path id: path195)
(Change tool to Default tool)

G00 Z0.200000
G00 X10.878939 Y8.788400

G01 Z-0.200000 F10000.0(Penetrate)
G01 X16.492339 Y0.000000 Z-0.200000 F10000.000000
G00 Z0.200000

(End cutting path id: path195)


(Start cutting path id: path209)
(Change tool to Default tool)

G00 Z0.200000
G00 X9.278739 Y9.601200

G01 Z-0.200000 F10000.0(Penetrate)
G01 X16.492339 Y0.000000 Z-0.200000 F10000.000000
G00 Z0.200000

(End cutting path id: path209)


(Start cutting path id: path180)
(Change tool to Default tool)

G00 Z0.200000
G00 X4.478139 Y0.000000

G01 Z-0.200000 F10000.0(Penetrate)
G01 X15.679539 Y0.000000 Z-0.200000 F10000.000000
G00 Z0.200000

(End cutting path id: path180)


(Start cutting path id: path217)
(Change tool to Default tool)

G00 Z0.200000
G00 X16.492339 Y12.801600

G01 Z-0.200000 F10000.0(Penetrate)
G01 X15.679539 Y14.401800 Z-0.200000 F10000.000000
G01 X14.079339 Y16.002000 Z-0.200000
G01 X12.479139 Y16.814800 Z-0.200000
G01 X9.278739 Y16.814800 Z-0.200000
G01 X7.678539 Y16.002000 Z-0.200000
G01 X6.078339 Y14.401800 Z-0.200000
G01 X5.265539 Y12.801600 Z-0.200000
G01 X4.478139 Y10.414000 Z-0.200000
G01 X4.478139 Y6.400800 Z-0.200000
G01 X5.265539 Y4.013200 Z-0.200000
G01 X6.078339 Y2.400300 Z-0.200000
G01 X7.678539 Y0.800100 Z-0.200000
G01 X9.278739 Y0.000000 Z-0.200000
G01 X12.479139 Y0.000000 Z-0.200000
G01 X14.079339 Y0.800100 Z-0.200000
G01 X15.679539 Y2.400300 Z-0.200000
G01 X16.492339 Y4.013200 Z-0.200000
G01 X16.492339 Y6.400800 Z-0.200000
G00 Z0.200000

(End cutting path id: path217)


(Start cutting path id: path193)
(Change tool to Default tool)

G00 Z0.200000
G00 X15.679539 Y14.401800

G01 Z-0.200000 F10000.0(Penetrate)
G01 X14.079339 Y16.002000 Z-0.200000 F10000.000000
G01 X11.666339 Y16.814800 Z-0.200000
G01 X8.465939 Y16.814800 Z-0.200000
G01 X6.078339 Y16.002000 Z-0.200000
G01 X4.478139 Y14.401800 Z-0.200000
G01 X4.478139 Y12.801600 Z-0.200000
G01 X5.265539 Y11.201400 Z-0.200000
G01 X6.078339 Y10.414000 Z-0.200000
G01 X7.678539 Y9.601200 Z-0.200000
G01 X12.479139 Y8.001000 Z-0.200000
G01 X14.079339 Y7.213600 Z-0.200000
G01 X14.866739 Y6.400800 Z-0.200000
G01 X15.679539 Y4.800600 Z-0.200000
G01 X15.679539 Y2.400300 Z-0.200000
G01 X14.079339 Y0.800100 Z-0.200000
G01 X11.666339 Y0.000000 Z-0.200000
G01 X8.465939 Y0.000000 Z-0.200000
G01 X6.078339 Y0.800100 Z-0.200000
G01 X4.478139 Y2.400300 Z-0.200000
G00 Z0.200000

(End cutting path id: path193)


(Start cutting path id: path215)
(Change tool to Default tool)

G00 Z0.200000
G00 X5.265539 Y8.788400

G01 Z-0.200000 F10000.0(Penetrate)
G01 X16.492339 Y8.788400 Z-0.200000 F10000.000000
G00 Z0.200000

(End cutting path id: path215)


(Start cutting path id: path215)
(Change tool to Default tool)

G00 Z0.200000
G00 X16.492339 Y16.814800

G01 Z-0.200000 F10000.0(Penetrate)
G01 X16.492339 Y0.000000 Z-0.200000 F10000.000000
G00 Z0.200000

(End cutting path id: path215)


(Start cutting path id: path219)
(Change tool to Default tool)

G00 Z0.200000
G00 X5.588000 Y8.919400

G01 Z-0.200000 F10000.0(Penetrate)
G01 X11.988800 Y8.919400 Z-0.200000 F10000.000000
G00 Z0.200000

(End cutting path id: path219)


(Start cutting path id: path211)
(Change tool to Default tool)

G00 Z0.200000
G00 X11.666339 Y16.814800

G01 Z-0.200000 F10000.0(Penetrate)
G01 X11.666339 Y4.013200 Z-0.200000 F10000.000000
G01 X10.878939 Y1.600200 Z-0.200000
G01 X10.091539 Y0.800100 Z-0.200000
G01 X8.465939 Y0.000000 Z-0.200000
G01 X6.891139 Y0.000000 Z-0.200000
G01 X5.265539 Y0.800100 Z-0.200000
G01 X4.478139 Y1.600200 Z-0.200000
G01 X3.690739 Y4.013200 Z-0.200000
G01 X3.690739 Y5.588000 Z-0.200000
G00 Z0.200000

(End cutting path id: path211)


(Start cutting path id: path185)
(Change tool to Default tool)

G00 Z0.200000
G00 X3.690739 Y16.814800

G01 Z-0.200000 F10000.0(Penetrate)
G01 X7.678539 Y0.000000 Z-0.200000 F10000.000000
G00 Z0.200000

(End cutting path id: path185)


(Start cutting path id: path191)
(Change tool to Default tool)

G00 Z0.200000
G00 X8.465939 Y16.814800

G01 Z-0.200000 F10000.0(Penetrate)
G01 X8.465939 Y0.000000 Z-0.200000 F10000.000000
G00 Z0.200000

(End cutting path id: path191)


(Start cutting path id: path201)
(Change tool to Default tool)

G00 Z0.200000
G00 X9.278739 Y16.814800

G01 Z-0.200000 F10000.0(Penetrate)
G01 X7.678539 Y16.002000 Z-0.200000 F10000.000000
G01 X6.078339 Y14.401800 Z-0.200000
G01 X5.265539 Y12.801600 Z-0.200000
G01 X4.478139 Y10.414000 Z-0.200000
G01 X4.478139 Y6.400800 Z-0.200000
G01 X5.265539 Y4.013200 Z-0.200000
G01 X6.078339 Y2.400300 Z-0.200000
G01 X7.678539 Y0.800100 Z-0.200000
G01 X9.278739 Y0.000000 Z-0.200000
G01 X12.479139 Y0.000000 Z-0.200000
G01 X14.079339 Y0.800100 Z-0.200000
G01 X15.679539 Y2.400300 Z-0.200000
G01 X16.492339 Y4.013200 Z-0.200000
G01 X17.279739 Y6.400800 Z-0.200000
G01 X17.279739 Y10.414000 Z-0.200000
G01 X16.492339 Y12.801600 Z-0.200000
G01 X15.679539 Y14.401800 Z-0.200000
G01 X14.079339 Y16.002000 Z-0.200000
G01 X12.479139 Y16.814800 Z-0.200000
G01 X9.278739 Y16.814800 Z-0.200000
G00 Z0.200000

(End cutting path id: path201)


(Start cutting path id: path197)
(Change tool to Default tool)

G00 Z0.200000
G00 X9.278739 Y16.814800

G01 Z-0.200000 F10000.0(Penetrate)
G01 X7.678539 Y16.002000 Z-0.200000 F10000.000000
G01 X6.078339 Y14.401800 Z-0.200000
G01 X5.265539 Y12.801600 Z-0.200000
G01 X4.478139 Y10.414000 Z-0.200000
G01 X4.478139 Y6.400800 Z-0.200000
G01 X5.265539 Y4.013200 Z-0.200000
G01 X6.078339 Y2.400300 Z-0.200000
G01 X7.678539 Y0.800100 Z-0.200000
G01 X9.278739 Y0.000000 Z-0.200000
G01 X12.479139 Y0.000000 Z-0.200000
G01 X14.079339 Y0.800100 Z-0.200000
G01 X15.679539 Y2.400300 Z-0.200000
G01 X16.492339 Y4.013200 Z-0.200000
G01 X17.279739 Y6.400800 Z-0.200000
G01 X17.279739 Y10.414000 Z-0.200000
G01 X16.492339 Y12.801600 Z-0.200000
G01 X15.679539 Y14.401800 Z-0.200000
G01 X14.079339 Y16.002000 Z-0.200000
G01 X12.479139 Y16.814800 Z-0.200000
G01 X9.278739 Y16.814800 Z-0.200000
G00 Z0.200000

(End cutting path id: path197)


(Start cutting path id: path185)
(Change tool to Default tool)

G00 Z0.200000
G00 X11.666339 Y16.814800

G01 Z-0.200000 F10000.0(Penetrate)
G01 X7.678539 Y0.000000 Z-0.200000 F10000.000000
G00 Z0.200000

(End cutting path id: path185)


(Start cutting path id: path215)
(Change tool to Default tool)

G00 Z0.200000
G00 X5.265539 Y16.814800

G01 Z-0.200000 F10000.0(Penetrate)
G01 X5.265539 Y0.000000 Z-0.200000 F10000.000000
G00 Z0.200000

(End cutting path id: path215)


(Start cutting path id: path209)
(Change tool to Default tool)

G00 Z0.200000
G00 X5.265539 Y16.814800

G01 Z-0.200000 F10000.0(Penetrate)
G01 X5.265539 Y0.000000 Z-0.200000 F10000.000000
G00 Z0.200000

(End cutting path id: path209)


(Start cutting path id: path205)
(Change tool to Default tool)

G00 Z0.200000
G00 X5.265539 Y16.814800

G01 Z-0.200000 F10000.0(Penetrate)
G01 X5.265539 Y0.000000 Z-0.200000 F10000.000000
G00 Z0.200000

(End cutting path id: path205)


(Start cutting path id: path205)
(Change tool to Default tool)

G00 Z0.200000
G00 X5.265539 Y16.814800

G01 Z-0.200000 F10000.0(Penetrate)
G01 X11.666339 Y0.000000 Z-0.200000 F10000.000000
G00 Z0.200000

(End cutting path id: path205)


(Start cutting path id: path185)
(Change tool to Default tool)

G00 Z0.200000
G00 X11.666339 Y16.814800

G01 Z-0.200000 F10000.0(Penetrate)
G01 X15.679539 Y0.000000 Z-0.200000 F10000.000000
G00 Z0.200000

(End cutting path id: path185)


(Start cutting path id: path187)
(Change tool to Default tool)

G00 Z0.200000
G00 X15.679539 Y16.814800

G01 Z-0.200000 F10000.0(Penetrate)
G01 X9.278739 Y0.000000 Z-0.200000 F10000.000000
G00 Z0.200000

(End cutting path id: path187)


(Start cutting path id: path203)
(Change tool to Default tool)

G00 Z0.200000
G00 X5.265539 Y16.814800

G01 Z-0.200000 F10000.0(Penetrate)
G01 X5.265539 Y0.000000 Z-0.200000 F10000.000000
G00 Z0.200000

(End cutting path id: path203)


(Start cutting path id: path203)
(Change tool to Default tool)

G00 Z0.200000
G00 X5.265539 Y16.814800

G01 Z-0.200000 F10000.0(Penetrate)
G01 X16.492339 Y0.000000 Z-0.200000 F10000.000000
G00 Z0.200000

(End cutting path id: path203)


(Start cutting path id: path209)
(Change tool to Default tool)

G00 Z0.200000
G00 X16.492339 Y16.814800

G01 Z-0.200000 F10000.0(Penetrate)
G01 X5.265539 Y5.588000 Z-0.200000 F10000.000000
G00 Z0.200000

(End cutting path id: path209)


(Start cutting path id: path199)
(Change tool to Default tool)

G00 Z0.200000
G00 X5.265539 Y16.814800

G01 Z-0.200000 F10000.0(Penetrate)
G01 X5.265539 Y0.000000 Z-0.200000 F10000.000000
G00 Z0.200000

(End cutting path id: path199)


(Start cutting path id: path199)
(Change tool to Default tool)

G00 Z0.200000
G00 X5.265539 Y16.814800

G01 Z-0.200000 F10000.0(Penetrate)
G01 X12.479139 Y16.814800 Z-0.200000 F10000.000000
G01 X14.866739 Y16.002000 Z-0.200000
G01 X15.679539 Y15.189200 Z-0.200000
G01 X16.492339 Y13.614400 Z-0.200000
G01 X16.492339 Y11.201400 Z-0.200000
G01 X15.679539 Y9.601200 Z-0.200000
G01 X14.866739 Y8.788400 Z-0.200000
G01 X12.479139 Y8.001000 Z-0.200000
G01 X5.265539 Y8.001000 Z-0.200000
G00 Z0.200000

(End cutting path id: path199)


(Start cutting path id: path195)
(Change tool to Default tool)

G00 Z0.200000
G00 X5.265539 Y16.814800

G01 Z-0.200000 F10000.0(Penetrate)
G01 X5.265539 Y0.000000 Z-0.200000 F10000.000000
G00 Z0.200000

(End cutting path id: path195)


(Start cutting path id: path195)
(Change tool to Default tool)

G00 Z0.200000
G00 X5.265539 Y16.814800

G01 Z-0.200000 F10000.0(Penetrate)
G01 X12.479139 Y16.814800 Z-0.200000 F10000.000000
G01 X14.866739 Y16.002000 Z-0.200000
G01 X15.679539 Y15.189200 Z-0.200000
G01 X16.492339 Y13.614400 Z-0.200000
G01 X16.492339 Y11.988800 Z-0.200000
G01 X15.679539 Y10.414000 Z-0.200000
G01 X14.866739 Y9.601200 Z-0.200000
G01 X12.479139 Y8.788400 Z-0.200000
G01 X5.265539 Y8.788400 Z-0.200000
G00 Z0.200000

(End cutting path id: path195)


(Start cutting path id: path189)
(Change tool to Default tool)

G00 Z0.200000
G00 X5.265539 Y16.814800

G01 Z-0.200000 F10000.0(Penetrate)
G01 X5.265539 Y4.800600 Z-0.200000 F10000.000000
G01 X6.078339 Y2.400300 Z-0.200000
G01 X7.678539 Y0.800100 Z-0.200000
G01 X10.091539 Y0.000000 Z-0.200000
G01 X11.666339 Y0.000000 Z-0.200000
G01 X14.079339 Y0.800100 Z-0.200000
G01 X15.679539 Y2.400300 Z-0.200000
G01 X16.492339 Y4.800600 Z-0.200000
G01 X16.492339 Y16.814800 Z-0.200000
G00 Z0.200000

(End cutting path id: path189)


(Start cutting path id: path203)
(Change tool to Default tool)

G00 Z0.200000
G00 X16.492339 Y16.814800

G01 Z-0.200000 F10000.0(Penetrate)
G01 X16.492339 Y0.000000 Z-0.200000 F10000.000000
G00 Z0.200000

(End cutting path id: path203)


(Start cutting path id: path183)
(Change tool to Default tool)

G00 Z0.200000
G00 X15.679539 Y16.814800

G01 Z-0.200000 F10000.0(Penetrate)
G01 X4.478139 Y0.000000 Z-0.200000 F10000.000000
G00 Z0.200000

(End cutting path id: path183)


(Start cutting path id: path183)
(Change tool to Default tool)

G00 Z0.200000
G00 X4.478139 Y16.814800

G01 Z-0.200000 F10000.0(Penetrate)
G01 X15.679539 Y0.000000 Z-0.200000 F10000.000000
G00 Z0.200000

(End cutting path id: path183)


(Start cutting path id: path181)
(Change tool to Default tool)

G00 Z0.200000
G00 X15.679539 Y16.814800

G01 Z-0.200000 F10000.0(Penetrate)
G01 X9.278739 Y8.788400 Z-0.200000 F10000.000000
G00 Z0.200000

(End cutting path id: path181)


(Start cutting path id: path219)
(Change tool to Default tool)

G00 Z0.200000
G00 X5.588000 Y16.945800

G01 Z-0.200000 F10000.0(Penetrate)
G01 X16.002000 Y16.945800 Z-0.200000 F10000.000000
G00 Z0.200000

(End cutting path id: path219)


(Start cutting path id: path180)
(Change tool to Default tool)

G00 Z0.200000
G00 X15.679539 Y16.814800

G01 Z-0.200000 F10000.0(Penetrate)
G01 X4.478139 Y0.000000 Z-0.200000 F10000.000000
G00 Z0.200000

(End cutting path id: path180)


(Start cutting path id: path180)
(Change tool to Default tool)

G00 Z0.200000
G00 X4.478139 Y16.814800

G01 Z-0.200000 F10000.0(Penetrate)
G01 X15.679539 Y16.814800 Z-0.200000 F10000.000000
G00 Z0.200000

(End cutting path id: path180)


(Start cutting path id: path205)
(Change tool to Default tool)

G00 Z0.200000
G00 X18.067139 Y16.814800

G01 Z-0.200000 F10000.0(Penetrate)
G01 X11.666339 Y0.000000 Z-0.200000 F10000.000000
G00 Z0.200000

(End cutting path id: path205)


(Start cutting path id: path205)
(Change tool to Default tool)

G00 Z0.200000
G00 X18.067139 Y16.814800

G01 Z-0.200000 F10000.0(Penetrate)
G01 X18.067139 Y0.000000 Z-0.200000 F10000.000000
G00 Z0.200000

(End cutting path id: path205)


(Start cutting path id: path185)
(Change tool to Default tool)

G00 Z0.200000
G00 X19.692739 Y16.814800

G01 Z-0.200000 F10000.0(Penetrate)
G01 X15.679539 Y0.000000 Z-0.200000 F10000.000000
G00 Z0.200000

(End cutting path id: path185)


(Start cutting path id: path213)
(Change tool to Default tool)

G00 Z0.200000
G00 X5.588000 Y16.945800

G01 Z-0.200000 F10000.0(Penetrate)
G01 X5.588000 Y0.131000 Z-0.200000 F10000.000000
G00 Z0.200000

(End cutting path id: path213)


(Start cutting path id: path207)
(Change tool to Default tool)

G00 Z0.200000
G00 X5.588000 Y16.945800

G01 Z-0.200000 F10000.0(Penetrate)
G01 X5.588000 Y0.131000 Z-0.200000 F10000.000000
G00 Z0.200000

(End cutting path id: path207)


(Start cutting path id: path191)
(Change tool to Default tool)

G00 Z0.200000
G00 X2.877939 Y16.814800

G01 Z-0.200000 F10000.0(Penetrate)
G01 X14.079339 Y16.814800 Z-0.200000 F10000.000000
G00 Z0.200000

(End cutting path id: path191)


(Start cutting path id: path187)
(Change tool to Default tool)

G00 Z0.200000
G00 X2.877939 Y16.814800

G01 Z-0.200000 F10000.0(Penetrate)
G01 X9.278739 Y0.000000 Z-0.200000 F10000.000000
G00 Z0.200000

(End cutting path id: path187)


(Start cutting path id: path181)
(Change tool to Default tool)

G00 Z0.200000
G00 X2.877939 Y16.814800

G01 Z-0.200000 F10000.0(Penetrate)
G01 X9.278739 Y8.788400 Z-0.200000 F10000.000000
G01 X9.278739 Y0.000000 Z-0.200000
G00 Z0.200000

(End cutting path id: path181)


(Footer)
M5
G00 X0.0000 Y0.0000
M2
(Using default footer. To add your own footer create file "footer" in the output dir.)
(end)
%