%
(Header)
(Generated by gcodetools from Inkscape.)
(Using default header. To add your own header create file "header" in the output dir.)
M3
(Header end.)
G21 (All units in mm)

(Start cutting path id: path185)
(Change tool to Default tool)

G00 Z0.200000
G00 X3.690739 Y16.814800

G01 Z-0.200000 F10000.0(Penetrate)
G01 X7.678539 Y0.000000 Z-0.200000 F10000.000000
G00 Z0.200000

(End cutting path id: path185)


(Start cutting path id: path185)
(Change tool to Default tool)

G00 Z0.200000
G00 X11.666339 Y16.814800

G01 Z-0.200000 F10000.0(Penetrate)
G01 X7.678539 Y0.000000 Z-0.200000 F10000.000000
G00 Z0.200000

(End cutting path id: path185)


(Start cutting path id: path185)
(Change tool to Default tool)

G00 Z0.200000
G00 X11.666339 Y16.814800

G01 Z-0.200000 F10000.0(Penetrate)
G01 X15.679539 Y0.000000 Z-0.200000 F10000.000000
G00 Z0.200000

(End cutting path id: path185)


(Start cutting path id: path185)
(Change tool to Default tool)

G00 Z0.200000
G00 X19.692739 Y16.814800

G01 Z-0.200000 F10000.0(Penetrate)
G01 X15.679539 Y0.000000 Z-0.200000 F10000.000000
G00 Z0.200000

(End cutting path id: path185)


(Footer)
M5
G00 X0.0000 Y0.0000
M2
(Using default footer. To add your own footer create file "footer" in the output dir.)
(end)
%