%
(Header)
(Generated by gcodetools from Inkscape.)
(Using default header. To add your own header create file "header" in the output dir.)
M3
(Header end.)
G21 (All units in mm)

(Start cutting path id: path56)
(Change tool to Default tool)

G00 Z0.300000
G00 X13.221600 Y34.262080

G01 Z-0.300000 F100.0(Penetrate)
G02 X20.238345 Y30.438887 Z-0.300000 I0.000000 J-8.350548 F15000.000000
G02 X24.061440 Y17.462080 Z-0.300000 I-20.112169 J-12.976807
G02 X20.238345 Y4.485273 Z-0.300000 I-23.935264 J0.000000
G02 X13.221600 Y0.662080 Z-0.300000 I-7.016745 J4.527356
G02 X6.205323 Y4.485065 Z-0.300000 I0.000000 J8.349936
G02 X2.382240 Y17.462080 Z-0.300000 I20.112951 J12.977015
G02 X6.205323 Y30.439095 Z-0.300000 I23.936034 J-0.000000
G02 X13.221600 Y34.262080 Z-0.300000 I7.016277 J-4.526950
G00 Z0.300000

(End cutting path id: path56)


(Footer)
M5
G00 X0.0000 Y0.0000
M2
(Using default footer. To add your own footer create file "footer" in the output dir.)
(end)
%