%
(Header)
(Generated by gcodetools from Inkscape.)
(Using default header. To add your own header create file "header" in the output dir.)
M3
(Header end.)
G21 (All units in mm)

(Start cutting path id: path38)
(Change tool to Default tool)

G00 Z0.300000
G00 X1.902240 Y34.262080

G01 Z-0.300000 F100.0(Penetrate)
G01 X19.741440 Y34.262080 Z-0.300000 F15000.000000
G01 X7.182720 Y20.535520 Z-0.300000
G02 X15.770272 Y20.046760 Z-0.300000 I3.146247 J-20.406580
G02 X19.617757 Y17.754100 Z-0.300000 I-2.206872 J-8.078225
G02 X21.757591 Y13.569131 Z-0.300000 I-5.941057 J-5.677294
G02 X21.571260 Y8.830720 Z-0.300000 I-10.593318 J-1.956303
G02 X16.483408 Y2.586390 Z-0.300000 I-9.489093 J2.536727
G02 X3.194400 Y3.198400 Z-0.300000 I-6.098267 J12.166847
G00 Z0.300000

(End cutting path id: path38)


(Footer)
M5
G00 X0.0000 Y0.0000
M2
(Using default footer. To add your own footer create file "footer" in the output dir.)
(end)
%