%
(Header)
(Generated by gcodetools from Inkscape.)
(Using default header. To add your own header create file "header" in the output dir.)
M3
(Header end.)
G21 (All units in mm)

(Start cutting path id: path26)
(Change tool to Default tool)

G00 Z0.300000
G00 X21.563040 Y34.262080

G01 Z-0.300000 F100.0(Penetrate)
G01 X5.388960 Y34.262080 Z-0.300000 F15000.000000
G01 X3.327360 Y18.935200 Z-0.300000
G02 X15.209777 Y21.185926 Z-0.300000 I8.079433 J-10.163116
G02 X20.244960 Y17.640160 Z-0.300000 I-2.899931 J-9.466063
G02 X21.171570 Y6.611515 Z-0.300000 I-8.388655 J-6.258051
G02 X17.389440 Y2.406880 Z-0.300000 I-9.817954 J5.028035
G02 X6.075518 Y1.275773 Z-0.300000 I-6.745079 J10.318364
G02 X2.388480 Y4.815520 Z-0.300000 I2.519910 J6.314867
G00 Z0.300000

(End cutting path id: path26)


(Footer)
M5
G00 X0.0000 Y0.0000
M2
(Using default footer. To add your own footer create file "footer" in the output dir.)
(end)
%