%
(Header)
(Generated by gcodetools from Inkscape.)
(Using default header. To add your own header create file "header" in the output dir.)
M3
(Header end.)
G21 (All units in mm)

(Start cutting path id: path20)
(Change tool to Default tool)

G00 Z0.300000
G00 X16.965120 Y34.262080

G01 Z-0.300000 F100.0(Penetrate)
G03 X10.070341 Y28.842616 Z-0.300000 I13.462490 J-24.222907 F15000.000000
G03 X6.199680 Y23.548960 Z-0.300000 I21.102694 J-19.491970
G03 X2.562880 Y12.974546 Z-0.300000 I25.544719 J-14.698055
G03 X5.876160 Y2.827360 Z-0.300000 I12.001149 J-1.695883
G03 X9.318176 Y0.852457 Z-0.300000 I5.177927 J5.037537
G03 X19.151040 Y2.503360 Z-0.300000 I3.012098 J12.167763
G03 X22.853424 Y6.933551 Z-0.300000 I-5.329458 J8.216084
G03 X20.365920 Y18.530560 Z-0.300000 I-9.571721 J4.012195
G03 X11.914949 Y21.343588 Z-0.300000 I-7.293173 J-7.809510
G03 X2.797920 Y14.887840 Z-0.300000 I1.245155 J-11.424015
G00 Z0.300000

(End cutting path id: path20)


(Footer)
M5
G00 X0.0000 Y0.0000
M2
(Using default footer. To add your own footer create file "footer" in the output dir.)
(end)
%