%
(Header)
(Generated by gcodetools from Inkscape.)
(Using default header. To add your own header create file "header" in the output dir.)
M3
(Header end.)
G21 (All units in mm)

(Start cutting path id: path2)
(Change tool to Default tool)

G00 Z0.300000
G00 X7.968000 Y0.669760

G01 Z-0.300000 F100.0(Penetrate)
G03 X14.862900 Y6.089254 Z-0.300000 I-13.463163 J24.224116 F15000.000000
G03 X18.733440 Y11.382400 Z-0.300000 I-21.104410 J19.494019
G03 X22.381896 Y21.965295 Z-0.300000 I-25.669788 J14.770018
G03 X19.057440 Y32.104000 Z-0.300000 I-11.927402 J1.703427
G03 X14.643531 Y34.445885 Z-0.300000 I-5.895479 J-5.781067
G03 X5.782560 Y32.427520 Z-0.300000 I-2.072330 J-11.361893
G03 X2.162154 Y27.903261 Z-0.300000 I6.438239 J-8.862705
G03 X4.567680 Y16.400320 Z-0.300000 I9.373268 J-4.042832
G03 X13.018651 Y13.587292 Z-0.300000 I7.293173 J7.809510
G03 X22.135680 Y20.043040 Z-0.300000 I-1.245155 J11.424015
G00 Z0.300000

(End cutting path id: path2)


(Footer)
M5
G00 X0.0000 Y0.0000
M2
(Using default footer. To add your own footer create file "footer" in the output dir.)
(end)
%