%
(Header)
(Generated by gcodetools from Inkscape.)
(Using default header. To add your own header create file "header" in the output dir.)
M3
(Header end.)
G21 (All units in mm)

(Start cutting path id: path70)
(Change tool to Default tool)

G00 Z0.300000
G00 X3.298080 Y34.262080

G01 Z-0.300000 F100.0(Penetrate)
G02 X3.300169 Y22.163237 Z-0.300000 I-1150.332437 J-6.247747 F15000.000000
G03 X3.298080 Y10.112320 Z-0.300000 I1226.456976 J-6.238306
G00 Z0.300000

(End cutting path id: path70)


(Start cutting path id: path69)
(Change tool to Default tool)

G00 Z0.300000
G00 X3.301440 Y3.636640

G01 Z-0.300000 F100.0(Penetrate)
G02 X3.900443 Y3.304812 Z-0.300000 I0.000000 J-0.706563 F15000.000000
G02 X4.232160 Y2.149120 Z-0.300000 I-1.847340 J-1.155692
G02 X3.900197 Y0.993182 Z-0.300000 I-2.178545 J0.000000
G02 X3.301440 Y0.661600 Z-0.300000 I-0.598757 J0.374815
G02 X2.702437 Y0.993428 Z-0.300000 I0.000000 J0.706563
G02 X2.370720 Y2.149120 Z-0.300000 I1.847340 J1.155692
G02 X2.702437 Y3.304812 Z-0.300000 I2.179057 J0.000000
G02 X3.301440 Y3.636640 Z-0.300000 I0.599003 J-0.374735
G00 Z0.300000

(End cutting path id: path69)


(Footer)
M5
G00 X0.0000 Y0.0000
M2
(Using default footer. To add your own footer create file "footer" in the output dir.)
(end)
%