%
(Header)
(Generated by gcodetools from Inkscape.)
(Using default header. To add your own header create file "header" in the output dir.)
M3
(Header end.)
G21 (All units in mm)

(Start cutting path id: path100)
(Change tool to Default tool)

G00 Z0.300000
G00 X3.661440 Y0.662080

G01 Z-0.300000 F100.0(Penetrate)
G02 X3.680409 Y23.645994 Z-0.300000 I2164.372955 J9.705712 F15000.000000
G03 X3.661440 Y34.262080 Z-0.300000 I-670.062990 J4.110803
G00 Z0.300000

(End cutting path id: path100)


(Start cutting path id: path100)
(Change tool to Default tool)

G00 Z0.300000
G00 X3.661440 Y8.468800

G01 Z-0.300000 F100.0(Penetrate)
G03 X7.476846 Y2.869489 Z-0.300000 I10.178202 J2.835915 F15000.000000
G03 X14.068800 Y0.662080 Z-0.300000 I6.591954 J8.739024
G03 X21.791496 Y3.924080 Z-0.300000 I-0.000000 J10.772636
G03 X25.309440 Y12.587200 Z-0.300000 I-8.907719 J8.663120
G03 X21.807274 Y21.344803 Z-0.300000 I-12.700820 J-0.000000
G03 X14.068800 Y24.662080 Z-0.300000 I-7.738474 J-7.367434
G03 X7.477602 Y22.413528 Z-0.300000 I-0.000000 J-10.784690
G03 X3.661440 Y16.780000 Z-0.300000 I6.652804 J-8.615923
G00 Z0.300000

(End cutting path id: path100)


(Footer)
M5
G00 X0.0000 Y0.0000
M2
(Using default footer. To add your own footer create file "footer" in the output dir.)
(end)
%