%
(Header)
(Generated by gcodetools from Inkscape.)
(Using default header. To add your own header create file "header" in the output dir.)
M3
(Header end.)
G21 (All units in mm)

(Start cutting path id: path270)
(Change tool to Default tool)

G00 Z0.300000
G00 X3.336000 Y24.662080

G01 Z-0.300000 F100.0(Penetrate)
G03 X3.352420 Y2.914450 Z-0.300000 I7017.463091 J-5.575676 F15000.000000
G02 X3.336000 Y-9.417920 Z-0.300000 I-1695.861270 J-3.908204
G00 Z0.300000

(End cutting path id: path270)


(Start cutting path id: path270)
(Change tool to Default tool)

G00 Z0.300000
G00 X3.373440 Y8.468800

G01 Z-0.300000 F100.0(Penetrate)
G03 X7.188846 Y2.869489 Z-0.300000 I10.178202 J2.835915 F15000.000000
G03 X13.780800 Y0.662080 Z-0.300000 I6.591954 J8.739024
G03 X21.503496 Y3.924080 Z-0.300000 I0.000000 J10.772636
G03 X25.021440 Y12.587200 Z-0.300000 I-8.907719 J8.663120
G03 X21.519274 Y21.344803 Z-0.300000 I-12.700820 J0.000000
G03 X13.780800 Y24.662080 Z-0.300000 I-7.738474 J-7.367434
G03 X7.189602 Y22.413528 Z-0.300000 I-0.000000 J-10.784690
G03 X3.373440 Y16.780000 Z-0.300000 I6.652804 J-8.615923
G00 Z0.300000

(End cutting path id: path270)


(Footer)
M5
G00 X0.0000 Y0.0000
M2
(Using default footer. To add your own footer create file "footer" in the output dir.)
(end)
%