%
(Header)
(Generated by gcodetools from Inkscape.)
(Using default header. To add your own header create file "header" in the output dir.)
M3
(Header end.)
G21 (All units in mm)

(Start cutting path id: path148)
(Change tool to Default tool)

G00 Z0.300000
G00 X3.469440 Y24.662080

G01 Z-0.300000 F100.0(Penetrate)
G01 X13.165440 Y24.662080 Z-0.300000 F15000.000000
G00 Z0.300000

(End cutting path id: path148)


(Start cutting path id: path148)
(Change tool to Default tool)

G00 Z0.300000
G00 X13.608960 Y33.888160

G01 Z-0.300000 F100.0(Penetrate)
G03 X9.938014 Y33.439871 Z-0.300000 I-1.495835 J-3.005369 F15000.000000
G03 X7.933440 Y29.103040 Z-0.300000 I3.689008 J-4.336831
G01 X7.933440 Y0.662080 Z-0.300000
G00 Z0.300000

(End cutting path id: path148)


(Footer)
M5
G00 X0.0000 Y0.0000
M2
(Using default footer. To add your own footer create file "footer" in the output dir.)
(end)
%