%
(Header)
(Generated by gcodetools from Inkscape.)
(Using default header. To add your own header create file "header" in the output dir.)
M3
(Header end.)
G21 (All units in mm)

(Start cutting path id: path246)
(Change tool to Default tool)

G00 Z0.300000
G00 X3.853440 Y13.472800

G01 Z-0.300000 F100.0(Penetrate)
G02 X7.198937 Y21.844364 Z-0.300000 I12.146991 J0.000000 F15000.000000
G02 X12.692040 Y24.569680 Z-0.300000 I6.480984 J-6.164405
G02 X17.866266 Y22.910537 Z-0.300000 I0.734298 J-6.607784
G02 X21.550080 Y14.675680 Z-0.300000 I-7.405802 J-8.254336
G01 X21.574560 Y0.662080 Z-0.300000
G00 Z0.300000

(End cutting path id: path246)


(Start cutting path id: path246)
(Change tool to Default tool)

G00 Z0.300000
G00 X3.853440 Y24.662080

G01 Z-0.300000 F100.0(Penetrate)
G02 X3.834162 Y13.705804 Z-0.300000 I-485.506287 J-4.623870 F15000.000000
G03 X3.853440 Y0.662080 Z-0.300000 I449.121937 J-5.858082
G00 Z0.300000

(End cutting path id: path246)


(Footer)
M5
G00 X0.0000 Y0.0000
M2
(Using default footer. To add your own footer create file "footer" in the output dir.)
(end)
%