%
(Header)
(Generated by gcodetools from Inkscape.)
(Using default header. To add your own header create file "header" in the output dir.)
M3
(Header end.)
G21 (All units in mm)

(Start cutting path id: path318)
(Change tool to Default tool)

G00 Z0.300000
G00 X6.877440 Y31.862080

G01 Z-0.300000 F100.0(Penetrate)
G01 X6.877440 Y4.769920 Z-0.300000 F15000.000000
G03 X10.323832 Y0.784633 Z-0.300000 I4.027419 J0.000000
G03 X13.137120 Y2.721760 Z-0.300000 I0.362328 J2.485223
G00 Z0.300000

(End cutting path id: path318)


(Start cutting path id: path318)
(Change tool to Default tool)

G00 Z0.300000
G00 X1.387680 Y24.662080

G01 Z-0.300000 F100.0(Penetrate)
G02 X6.796400 Y24.666869 Z-0.300000 I2.884071 J-202.952046 F15000.000000
G03 X13.745280 Y24.662080 Z-0.300000 I3.678237 J295.693922
G00 Z0.300000

(End cutting path id: path318)


(Footer)
M5
G00 X0.0000 Y0.0000
M2
(Using default footer. To add your own footer create file "footer" in the output dir.)
(end)
%