%
(Header)
(Generated by gcodetools from Inkscape.)
(Using default header. To add your own header create file "header" in the output dir.)
M3
(Header end.)
G21 (All units in mm)

(Start cutting path id: path234)
(Change tool to Default tool)

G00 Z0.300000
G00 X3.325440 Y13.472800

G01 Z-0.300000 F100.0(Penetrate)
G02 X6.576132 Y21.909252 Z-0.300000 I12.572818 J-0.000000 F15000.000000
G02 X11.740260 Y24.569680 Z-0.300000 I6.121272 J-5.539703
G02 X16.593705 Y22.959954 Z-0.300000 I0.701205 J-6.007428
G02 X20.173440 Y14.675680 Z-0.300000 I-7.839767 J-8.303218
G01 X20.196960 Y0.662080 Z-0.300000
G00 Z0.300000

(End cutting path id: path234)


(Start cutting path id: path234)
(Change tool to Default tool)

G00 Z0.300000
G00 X20.125440 Y13.472800

G01 Z-0.300000 F100.0(Penetrate)
G02 X23.376132 Y21.909252 Z-0.300000 I12.572818 J0.000000 F15000.000000
G02 X28.540260 Y24.569680 Z-0.300000 I6.121272 J-5.539703
G02 X33.393705 Y22.959954 Z-0.300000 I0.701205 J-6.007428
G02 X36.973440 Y14.675680 Z-0.300000 I-7.839767 J-8.303218
G01 X36.996960 Y0.662080 Z-0.300000
G00 Z0.300000

(End cutting path id: path234)


(Start cutting path id: path234)
(Change tool to Default tool)

G00 Z0.300000
G00 X3.325440 Y24.662080

G01 Z-0.300000 F100.0(Penetrate)
G03 X3.306035 Y16.368662 Z-0.300000 I323.667236 J-4.904050 F15000.000000
G02 X3.325440 Y0.662080 Z-0.300000 I-850.322358 J-8.903846
G00 Z0.300000

(End cutting path id: path234)


(Footer)
M5
G00 X0.0000 Y0.0000
M2
(Using default footer. To add your own footer create file "footer" in the output dir.)
(end)
%