%
(Header)
(Generated by gcodetools from Inkscape.)
(Using default header. To add your own header create file "header" in the output dir.)
M3
(Header end.)
G21 (All units in mm)

(Start cutting path id: path210)
(Change tool to Default tool)

G00 Z0.300000
G00 X3.805440 Y34.262080

G01 Z-0.300000 F100.0(Penetrate)
G01 X3.805440 Y0.662080 Z-0.300000 F15000.000000
G00 Z0.300000

(End cutting path id: path210)


(Start cutting path id: path210)
(Change tool to Default tool)

G00 Z0.300000
G00 X10.045440 Y13.775680

G01 Z-0.300000 F100.0(Penetrate)
G02 X15.468801 Y7.216969 Z-0.300000 I-310.560332 J-262.322195 F15000.000000
G03 X20.881440 Y0.662080 Z-0.300000 I337.736029 J273.370257
G00 Z0.300000

(End cutting path id: path210)


(Start cutting path id: path210)
(Change tool to Default tool)

G00 Z0.300000
G00 X20.881440 Y24.662080

G01 Z-0.300000 F100.0(Penetrate)
G03 X12.318694 Y16.055788 Z-0.300000 I1120.432216 J-1123.326555 F15000.000000
G02 X3.805440 Y7.506400 Z-0.300000 I-1011.354126 J998.566791
G00 Z0.300000

(End cutting path id: path210)


(Footer)
M5
G00 X0.0000 Y0.0000
M2
(Using default footer. To add your own footer create file "footer" in the output dir.)
(end)
%