%
(Header)
(Generated by gcodetools from Inkscape.)
(Using default header. To add your own header create file "header" in the output dir.)
M3
(Header end.)
G21 (All units in mm)

(Start cutting path id: path88)
(Change tool to Default tool)

G00 Z0.300000
G00 X22.813440 Y24.662080

G01 Z-0.300000 F100.0(Penetrate)
G02 X22.833192 Y17.995231 Z-0.300000 I-321.431083 J-4.285747 F15000.000000
G03 X22.813440 Y0.662080 Z-0.300000 I1382.710165 J-10.242231
G00 Z0.300000

(End cutting path id: path88)


(Start cutting path id: path88)
(Change tool to Default tool)

G00 Z0.300000
G00 X22.813440 Y16.780000

G01 Z-0.300000 F100.0(Penetrate)
G03 X18.996783 Y22.413695 Z-0.300000 I-10.470817 J-2.983977 F15000.000000
G03 X12.406080 Y24.662080 Z-0.300000 I-6.590703 J-8.535491
G03 X4.667825 Y21.345017 Z-0.300000 I-0.000000 J-10.684676
G03 X1.165440 Y12.587200 Z-0.300000 I9.198396 J-8.757817
G03 X4.683363 Y3.924100 Z-0.300000 I12.425667 J0.000000
G03 X12.406080 Y0.662080 Z-0.300000 I7.722717 J7.510619
G03 X18.998034 Y2.869489 Z-0.300000 I0.000000 J10.946433
G03 X22.813440 Y8.468800 Z-0.300000 I-6.362795 J8.435226
G00 Z0.300000

(End cutting path id: path88)


(Footer)
M5
G00 X0.0000 Y0.0000
M2
(Using default footer. To add your own footer create file "footer" in the output dir.)
(end)
%