%
(Header)
(Generated by gcodetools from Inkscape.)
(Using default header. To add your own header create file "header" in the output dir.)
M3
(Header end.)
G21 (All units in mm)

(Start cutting path id: path172)
(Change tool to Default tool)

G00 Z0.300000
G00 X3.373440 Y34.262080

G01 Z-0.300000 F100.0(Penetrate)
G02 X3.379699 Y11.377962 Z-0.300000 I-7936.254975 J-13.613850 F15000.000000
G03 X3.373440 Y0.662080 Z-0.300000 I9172.798341 J-10.712850
G00 Z0.300000

(End cutting path id: path172)


(Start cutting path id: path172)
(Change tool to Default tool)

G00 Z0.300000
G00 X3.373440 Y15.062080

G01 Z-0.300000 F100.0(Penetrate)
G02 X12.539568 Y24.262925 Z-0.300000 I9.166128 J0.034651 F15000.000000
G02 X21.696000 Y15.062080 Z-0.300000 I0.000000 J-9.156539
G01 X21.696000 Y0.662080 Z-0.300000
G00 Z0.300000

(End cutting path id: path172)


(Footer)
M5
G00 X0.0000 Y0.0000
M2
(Using default footer. To add your own footer create file "footer" in the output dir.)
(end)
%