%
(Header)
(Generated by gcodetools from Inkscape.)
(Using default header. To add your own header create file "header" in the output dir.)
M3
(Header end.)
G21 (All units in mm)

(Start cutting path id: path106)
(Change tool to Default tool)

G00 Z0.300000
G00 X4.285440 Y34.262080

G01 Z-0.300000 F100.0(Penetrate)
G01 X4.285440 Y0.662080 Z-0.300000 F15000.000000
G01 X13.792800 Y0.662080 Z-0.300000
G03 X22.283018 Y8.049168 Z-0.300000 I0.000000 J8.572585
G03 X13.792800 Y18.806080 Z-0.300000 I-9.397063 J1.312120
G01 X4.258560 Y18.806080 Z-0.300000
G00 Z0.300000

(End cutting path id: path106)


(Start cutting path id: path106)
(Change tool to Default tool)

G00 Z0.300000
G00 X13.792800 Y18.806080

G01 Z-0.300000 F100.0(Penetrate)
G03 X19.955667 Y25.509402 Z-0.300000 I-2.323871 J8.321163 F15000.000000
G03 X16.476960 Y32.886400 Z-0.300000 I-6.808756 J1.297964
G03 X13.159119 Y33.937147 Z-0.300000 I-4.328986 J-7.905631
G03 X4.285440 Y34.262080 Z-0.300000 I-6.575543 J-58.243936
G00 Z0.300000

(End cutting path id: path106)


(Footer)
M5
G00 X0.0000 Y0.0000
M2
(Using default footer. To add your own footer create file "footer" in the output dir.)
(end)
%