%
(Header)
(Generated by gcodetools from Inkscape.)
(Using default header. To add your own header create file "header" in the output dir.)
M3
(Header end.)
G21 (All units in mm)

(Start cutting path id: path178)
(Change tool to Default tool)

G00 Z0.300000
G00 X4.285440 Y34.262080

G01 Z-0.300000 F100.0(Penetrate)
G03 X4.295161 Y13.223596 Z-0.300000 I2550.076410 J-9.340915 F15000.000000
G02 X4.285440 Y0.662080 Z-0.300000 I-1171.556819 J-5.374119
G00 Z0.300000

(End cutting path id: path178)


(Start cutting path id: path178)
(Change tool to Default tool)

G00 Z0.300000
G00 X4.285440 Y17.462080

G01 Z-0.300000 F100.0(Penetrate)
G02 X13.998914 Y17.508334 Z-0.300000 I9.713474 J-1019.914738 F15000.000000
G02 X24.637440 Y17.462080 Z-0.300000 I0.000000 J-1223.476778
G00 Z0.300000

(End cutting path id: path178)


(Start cutting path id: path178)
(Change tool to Default tool)

G00 Z0.300000
G00 X24.637440 Y34.262080

G01 Z-0.300000 F100.0(Penetrate)
G03 X24.647161 Y13.223596 Z-0.300000 I2550.076410 J-9.340915 F15000.000000
G02 X24.637440 Y0.662080 Z-0.300000 I-1171.556819 J-5.374119
G00 Z0.300000

(End cutting path id: path178)


(Footer)
M5
G00 X0.0000 Y0.0000
M2
(Using default footer. To add your own footer create file "footer" in the output dir.)
(end)
%