%
(Header)
(Generated by gcodetools from Inkscape.)
(Using default header. To add your own header create file "header" in the output dir.)
M3
(Header end.)
G21 (All units in mm)

(Start cutting path id: path216)
(Change tool to Default tool)

G00 Z0.300000
G00 X4.285440 Y34.262080

G01 Z-0.300000 F100.0(Penetrate)
G02 X4.287333 Y18.438817 Z-0.300000 I-1980.086257 J-8.149055 F15000.000000
G03 X4.285440 Y0.662080 Z-0.300000 I2357.977798 J-9.138753
G00 Z0.300000

(End cutting path id: path216)


(Start cutting path id: path216)
(Change tool to Default tool)

G00 Z0.300000
G00 X13.272000 Y19.516000

G01 Z-0.300000 F100.0(Penetrate)
G02 X20.558089 Y10.090690 Z-0.300000 I-848.765643 J-663.653783 F15000.000000
G03 X27.853440 Y0.662080 Z-0.300000 I792.790253 J605.881569
G00 Z0.300000

(End cutting path id: path216)


(Start cutting path id: path216)
(Change tool to Default tool)

G00 Z0.300000
G00 X27.805440 Y34.262080

G01 Z-0.300000 F100.0(Penetrate)
G01 X4.285440 Y10.406080 Z-0.300000 F15000.000000
G00 Z0.300000

(End cutting path id: path216)


(Footer)
M5
G00 X0.0000 Y0.0000
M2
(Using default footer. To add your own footer create file "footer" in the output dir.)
(end)
%