%
(Header)
(Generated by gcodetools from Inkscape.)
(Using default header. To add your own header create file "header" in the output dir.)
M3
(Header end.)
G21 (All units in mm)

(Start cutting path id: path264)
(Change tool to Default tool)

G00 Z0.300000
G00 X18.253440 Y34.742080

G01 Z-0.300000 F100.0(Penetrate)
G03 X6.834541 Y29.806881 Z-0.300000 I0.000000 J-15.677931 F15000.000000
G03 X1.885440 Y17.414080 Z-0.300000 I13.269653 J-12.483894
G03 X6.850372 Y4.970458 Z-0.300000 I18.304448 J0.091067
G03 X18.253440 Y0.038080 Z-0.300000 I11.403068 J10.715075
G03 X29.663494 Y4.969184 Z-0.300000 I0.000000 J15.666382
G03 X34.669440 Y17.414080 Z-0.300000 I-13.422019 J12.628259
G03 X29.679316 Y29.808152 Z-0.300000 I-18.342339 J-0.183423
G03 X18.253440 Y34.742080 Z-0.300000 I-11.425876 J-10.762926
G00 Z0.300000

(End cutting path id: path264)


(Footer)
M5
G00 X0.0000 Y0.0000
M2
(Using default footer. To add your own footer create file "footer" in the output dir.)
(end)
%