%
(Header)
(Generated by gcodetools from Inkscape.)
(Using default header. To add your own header create file "header" in the output dir.)
M3
(Header end.)
G21 (All units in mm)

(Start cutting path id: path300)
(Change tool to Default tool)

G00 Z0.300000
G00 X3.565440 Y15.974080

G01 Z-0.300000 F100.0(Penetrate)
G01 X14.004000 Y15.974080 Z-0.300000 F15000.000000
G03 X22.763894 Y25.356606 Z-0.300000 I0.000000 J8.780553
G03 X13.225440 Y34.262080 Z-0.300000 I-9.538454 J-0.655475
G01 X3.565440 Y34.262080 Z-0.300000
G01 X3.565440 Y0.662080 Z-0.300000
G00 Z0.300000

(End cutting path id: path300)


(Start cutting path id: path300)
(Change tool to Default tool)

G00 Z0.300000
G00 X11.433600 Y15.974080

G01 Z-0.300000 F100.0(Penetrate)
G02 X19.979106 Y10.878865 Z-0.300000 I-0.000000 J-9.713711 F15000.000000
G02 X22.141440 Y3.468160 Z-0.300000 I-16.169054 J-8.738710
G03 X23.138354 Y1.331996 Z-0.300000 I3.581166 J0.370569
G03 X24.979680 Y0.662080 Z-0.300000 I1.611100 J1.562773
G00 Z0.300000

(End cutting path id: path300)


(Footer)
M5
G00 X0.0000 Y0.0000
M2
(Using default footer. To add your own footer create file "footer" in the output dir.)
(end)
%