%
(Header)
(Generated by gcodetools from Inkscape.)
(Using default header. To add your own header create file "header" in the output dir.)
M3
(Header end.)
G21 (All units in mm)

(Start cutting path id: path312)
(Change tool to Default tool)

G00 Z0.300000
G00 X24.480480 Y29.960800

G01 Z-0.300000 F100.0(Penetrate)
G03 X11.574702 Y34.474375 Z-0.300000 I-10.602645 J-9.608713 F15000.000000
G03 X4.538400 Y26.197600 Z-0.300000 I1.349818 J-8.276775
G03 X11.749902 Y18.704334 Z-0.300000 I7.498771 J0.000000
G02 X21.686400 Y16.397440 Z-0.300000 I-1.035636 J-27.014021
G02 X24.975298 Y6.705162 Z-0.300000 I-2.825924 J-6.363078
G02 X14.592000 Y0.535840 Z-0.300000 I-10.383298 J5.653160
G02 X7.795551 Y1.985417 Z-0.300000 I-0.000000 J16.657621
G02 X2.140800 Y5.747680 Z-0.300000 I8.345359 J18.673956
G00 Z0.300000

(End cutting path id: path312)


(Footer)
M5
G00 X0.0000 Y0.0000
M2
(Using default footer. To add your own footer create file "footer" in the output dir.)
(end)
%