%
(Header)
(Generated by gcodetools from Inkscape.)
(Using default header. To add your own header create file "header" in the output dir.)
M3
(Header end.)
G21 (All units in mm)

(Start cutting path id: path324)
(Change tool to Default tool)

G00 Z0.300000
G00 X1.405440 Y34.262080

G01 Z-0.300000 F100.0(Penetrate)
G03 X13.834000 Y34.219223 Z-0.300000 I12.428562 J1802.141270 F15000.000000
G03 X25.405440 Y34.262080 Z-0.300000 I-0.000001 J1562.187192
G00 Z0.300000

(End cutting path id: path324)


(Start cutting path id: path324)
(Change tool to Default tool)

G00 Z0.300000
G00 X13.405440 Y34.262080

G01 Z-0.300000 F100.0(Penetrate)
G03 X13.406248 Y17.093662 Z-0.300000 I1978.427745 J-8.485512 F15000.000000
G02 X13.405440 Y0.662080 Z-0.300000 I-1852.433606 J-8.129833
G00 Z0.300000

(End cutting path id: path324)


(Footer)
M5
G00 X0.0000 Y0.0000
M2
(Using default footer. To add your own footer create file "footer" in the output dir.)
(end)
%