%
(Header)
(Generated by gcodetools from Inkscape.)
(Using default header. To add your own header create file "header" in the output dir.)
M3
(Header end.)
G21 (All units in mm)

(Start cutting path id: path372)
(Change tool to Default tool)

G00 Z0.300000
G00 X2.845440 Y34.262080

G01 Z-0.300000 F100.0(Penetrate)
G03 X15.254190 Y17.463836 Z-0.300000 I2130.853021 J1561.064724 F15000.000000
G02 X27.672960 Y0.662080 Z-0.300000 I-2284.570704 J-1701.597537
G00 Z0.300000

(End cutting path id: path372)


(Start cutting path id: path372)
(Change tool to Default tool)

G00 Z0.300000
G00 X2.845440 Y0.662080

G01 Z-0.300000 F100.0(Penetrate)
G03 X15.254216 Y17.460307 Z-0.300000 I-2652.589194 J1972.436841 F15000.000000
G02 X27.672960 Y34.262080 Z-0.300000 I2446.957169 J-1795.635207
G00 Z0.300000

(End cutting path id: path372)


(Footer)
M5
G00 X0.0000 Y0.0000
M2
(Using default footer. To add your own footer create file "footer" in the output dir.)
(end)
%