%
(Header)
(Generated by gcodetools from Inkscape.)
(Using default header. To add your own header create file "header" in the output dir.)
M3
(Header end.)
G21 (All units in mm)

(Start cutting path id: path384)
(Change tool to Default tool)

G00 Z0.300000
G00 X14.172480 Y0.662080

G01 Z-0.300000 F100.0(Penetrate)
G03 X14.173095 Y9.043605 Z-0.300000 I-565.130210 J4.231870 F15000.000000
G02 X14.172480 Y17.425120 Z-0.300000 I576.546367 J4.233485
G00 Z0.300000

(End cutting path id: path384)


(Start cutting path id: path384)
(Change tool to Default tool)

G00 Z0.300000
G00 X1.933440 Y34.262080

G01 Z-0.300000 F100.0(Penetrate)
G01 X14.172480 Y17.425120 Z-0.300000 F15000.000000
G01 X26.412480 Y34.262080 Z-0.300000
G00 Z0.300000

(End cutting path id: path384)


(Footer)
M5
G00 X0.0000 Y0.0000
M2
(Using default footer. To add your own footer create file "footer" in the output dir.)
(end)
%