%
(Header)
(Generated by gcodetools from Inkscape.)
(Using default header. To add your own header create file "header" in the output dir.)
M3
(Header end.)
G21 (All units in mm)

(Start cutting path id: path44)
(Change tool to Default tool)

G00 Z0.300000
G00 X3.360960 Y26.938240

G01 Z-0.300000 F100.0(Penetrate)
G02 X12.814287 Y33.293891 Z-0.300000 I9.138816 J-3.384763 F15000.000000
G02 X21.065280 Y25.478080 Z-0.300000 I-0.276226 J-8.554714
G02 X16.563599 Y14.358381 Z-0.300000 I-13.166656 J-1.140708
G03 X3.948000 Y0.662080 Z-0.300000 I54.904150 J-63.230191
G01 X23.638080 Y0.662080 Z-0.300000
G00 Z0.300000

(End cutting path id: path44)


(Footer)
M5
G00 X0.0000 Y0.0000
M2
(Using default footer. To add your own footer create file "footer" in the output dir.)
(end)
%