%
(Header)
(Generated by gcodetools from Inkscape.)
(Using default header. To add your own header create file "header" in the output dir.)
M3
(Header end.)
G21 (All units in mm)

(Start cutting path id: path8)
(Change tool to Default tool)

G00 Z0.300000
G00 X11.965440 Y17.397280

G01 Z-0.300000 F100.0(Penetrate)
G02 X6.187162 Y19.834923 Z-0.300000 I0.000000 J8.067344 F15000.000000
G02 X3.749760 Y25.829440 Z-0.300000 I6.152723 J5.994517
G02 X6.187364 Y31.824160 Z-0.300000 I8.590111 J0.000000
G02 X11.965440 Y34.261600 Z-0.300000 I5.778076 J-5.629892
G02 X17.743516 Y31.824160 Z-0.300000 I0.000000 J-8.067332
G02 X20.181120 Y25.829440 Z-0.300000 I-6.152507 J-5.994720
G02 X17.743718 Y19.834923 Z-0.300000 I-8.590124 J-0.000000
G02 X11.965440 Y17.397280 Z-0.300000 I-5.778278 J5.629701
G00 Z0.300000

(End cutting path id: path8)


(Start cutting path id: path8)
(Change tool to Default tool)

G00 Z0.300000
G00 X11.965440 Y17.413120

G01 Z-0.300000 F100.0(Penetrate)
G02 X18.248083 Y14.913471 Z-0.300000 I0.000000 J-9.145251 F15000.000000
G02 X20.820480 Y8.941600 Z-0.300000 I-5.645708 J-5.971871
G02 X18.262677 Y2.884124 Z-0.300000 I-8.451660 J0.000000
G02 X11.965440 Y0.326080 Z-0.300000 I-6.297237 J6.472053
G02 X5.668203 Y2.884124 Z-0.300000 I0.000000 J9.030098
G02 X3.110400 Y8.941600 Z-0.300000 I5.893857 J6.057476
G02 X5.682797 Y14.913471 Z-0.300000 I8.218105 J0.000000
G02 X11.965440 Y17.413120 Z-0.300000 I6.282643 J-6.645602
G00 Z0.300000

(End cutting path id: path8)


(Footer)
M5
G00 X0.0000 Y0.0000
M2
(Using default footer. To add your own footer create file "footer" in the output dir.)
(end)
%