%
(Header)
(Generated by gcodetools from Inkscape.)
(Using default header. To add your own header create file "header" in the output dir.)
M3
(Header end.)
G21 (All units in mm)

(Start cutting path id: path198)
(Change tool to Default tool)

G00 Z0.300000
G00 X3.037440 Y24.662080

G01 Z-0.300000 F100.0(Penetrate)
G01 X3.037440 Y-5.531360 Z-0.300000 F15000.000000
G02 X1.718522 Y-8.090242 Z-0.300000 I-3.141750 J-0.000000
G02 X-0.514560 Y-8.553920 Z-0.300000 I-1.643831 J2.307603
G00 Z0.300000

(End cutting path id: path198)


(Start cutting path id: path197)
(Change tool to Default tool)

G00 Z0.300000
G00 X3.037440 Y31.317760

G01 Z-0.300000 F100.0(Penetrate)
G03 X2.651462 Y31.128398 Z-0.300000 I0.000000 J-0.488053 F15000.000000
G03 X2.461920 Y30.573760 Z-0.300000 I0.716721 J-0.554638
G03 X2.651237 Y30.019347 Z-0.300000 I0.906457 J-0.000000
G03 X3.037440 Y29.829760 Z-0.300000 I0.386203 J0.298570
G03 X3.423418 Y30.019122 Z-0.300000 I0.000000 J0.488053
G03 X3.612960 Y30.573760 Z-0.300000 I-0.716721 J0.554638
G03 X3.423418 Y31.128398 Z-0.300000 I-0.906263 J-0.000000
G03 X3.037440 Y31.317760 Z-0.300000 I-0.385978 J-0.298691
G00 Z0.300000

(End cutting path id: path197)


(Footer)
M5
G00 X0.0000 Y0.0000
M2
(Using default footer. To add your own footer create file "footer" in the output dir.)
(end)
%