%
(Header)
(Generated by gcodetools from Inkscape.)
(Using default header. To add your own header create file "header" in the output dir.)
M3
(Header end.)
G21 (All units in mm)

(Start cutting path id: path306)
(Change tool to Default tool)

G00 Z0.300000
G00 X19.059840 Y21.584800

G01 Z-0.300000 F100.0(Penetrate)
G03 X15.204360 Y24.288604 Z-0.300000 I-6.019712 J-4.483031 F15000.000000
G03 X10.122240 Y24.741760 Z-0.300000 I-3.638668 J-12.083044
G03 X5.724947 Y23.060620 Z-0.300000 I1.086052 J-9.432229
G03 X3.868800 Y19.615840 Z-0.300000 I2.540711 J-3.591471
G03 X11.144707 Y13.249795 Z-0.300000 I6.240884 J-0.208071
G02 X18.843360 Y6.358720 Z-0.300000 I1.096109 J-6.521410
G02 X16.745318 Y2.361062 Z-0.300000 I-4.861396 J0.001973
G02 X11.840580 Y0.682480 Z-0.300000 I-5.428698 J7.857405
G02 X6.217170 Y1.608587 Z-0.300000 I-0.722481 J13.149023
G02 X1.925760 Y5.306560 Z-0.300000 I3.253806 J8.114991
G00 Z0.300000

(End cutting path id: path306)


(Footer)
M5
G00 X0.0000 Y0.0000
M2
(Using default footer. To add your own footer create file "footer" in the output dir.)
(end)
%