%
(Header)
(Generated by gcodetools from Inkscape.)
(Using default header. To add your own header create file "header" in the output dir.)
M3
(Header end.)
G21 (All units in mm)

(Start cutting path id: path378)
(Change tool to Default tool)

G00 Z0.300000
G00 X3.325440 Y24.662080

G01 Z-0.300000 F100.0(Penetrate)
G01 X3.353280 Y10.618240 Z-0.300000 F15000.000000
G03 X6.765447 Y2.859046 Z-0.300000 I10.576207 J0.021110
G03 X12.153600 Y0.676000 Z-0.300000 I5.600651 J6.082430
G03 X17.678029 Y2.831318 Z-0.300000 I-0.223529 J8.730600
G03 X21.222720 Y10.618240 Z-0.300000 I-6.824591 J7.806880
G00 Z0.300000

(End cutting path id: path378)


(Start cutting path id: path378)
(Change tool to Default tool)

G00 Z0.300000
G00 X3.325440 Y-6.481760

G01 Z-0.300000 F100.0(Penetrate)
G03 X15.768789 Y-8.064292 Z-0.300000 I7.463628 J8.974137 F15000.000000
G03 X21.300960 Y0.662080 Z-0.300000 I-4.116345 J8.726372
G01 X21.250560 Y24.662080 Z-0.300000
G00 Z0.300000

(End cutting path id: path378)


(Footer)
M5
G00 X0.0000 Y0.0000
M2
(Using default footer. To add your own footer create file "footer" in the output dir.)
(end)
%