%
(Header)
(Generated by gcodetools from Inkscape.)
(Using default header. To add your own header create file "header" in the output dir.)
M3
(Header end.)
G21 (All units in mm)

(Start cutting path id: path366)
(Change tool to Default tool)

G00 Z0.300000
G00 X1.383360 Y24.662080

G01 Z-0.300000 F100.0(Penetrate)
G03 X10.553803 Y12.673555 Z-0.300000 I685.639083 J514.967696 F15000.000000
G02 X19.790400 Y0.662080 Z-0.300000 I-955.721912 J-744.489217
G00 Z0.300000

(End cutting path id: path366)


(Start cutting path id: path366)
(Change tool to Default tool)

G00 Z0.300000
G00 X1.383360 Y0.662080

G01 Z-0.300000 F100.0(Penetrate)
G02 X10.619533 Y12.673408 Z-0.300000 I962.454748 J-730.527838 F15000.000000
G03 X19.790400 Y24.662080 Z-0.300000 I-677.747720 J527.952600
G00 Z0.300000

(End cutting path id: path366)


(Footer)
M5
G00 X0.0000 Y0.0000
M2
(Using default footer. To add your own footer create file "footer" in the output dir.)
(end)
%