%
(Header)
(Generated by gcodetools from Inkscape.)
(Using default header. To add your own header create file "header" in the output dir.)
M3
(Header end.)
G21 (All units in mm)

(Start cutting path id: path258)
(Change tool to Default tool)

G00 Z0.300000
G00 X13.082880 Y24.662080

G01 Z-0.300000 F100.0(Penetrate)
G02 X20.470677 Y21.775483 Z-0.300000 I0.000000 J-10.897257 F15000.000000
G02 X24.252960 Y13.142080 Z-0.300000 I-7.962119 J-8.633403
G02 X20.567424 Y3.884271 Z-0.300000 I-13.470254 J-0.000000
G02 X13.082880 Y0.662080 Z-0.300000 I-7.484544 J7.081500
G02 X5.375733 Y4.102077 Z-0.300000 I0.000000 J10.353745
G02 X1.915200 Y13.142080 Z-0.300000 I10.077405 J9.040003
G02 X5.697861 Y21.776509 Z-0.300000 I11.745949 J0.000000
G02 X13.082880 Y24.662080 Z-0.300000 I7.385019 J-8.007424
G00 Z0.300000

(End cutting path id: path258)


(Footer)
M5
G00 X0.0000 Y0.0000
M2
(Using default footer. To add your own footer create file "footer" in the output dir.)
(end)
%