%
(Header)
(Generated by gcodetools from Inkscape.)
(Using default header. To add your own header create file "header" in the output dir.)
M3
(Header end.)
G21 (All units in mm)

(Start cutting path id: path294)
(Change tool to Default tool)

G00 Z0.300000
G00 X3.369120 Y24.662080

G01 Z-0.300000 F100.0(Penetrate)
G02 X3.379704 Y13.804835 Z-0.300000 I-517.068967 J-5.932688 F15000.000000
G03 X3.369120 Y0.662080 Z-0.300000 I753.730164 J-7.178369
G00 Z0.300000

(End cutting path id: path294)


(Start cutting path id: path294)
(Change tool to Default tool)

G00 Z0.300000
G00 X3.369120 Y13.835680

G01 Z-0.300000 F100.0(Penetrate)
G02 X9.405510 Y23.895868 Z-0.300000 I11.316487 J0.050890 F15000.000000
G02 X15.649920 Y23.714080 Z-0.300000 I2.961420 J-5.613862
G00 Z0.300000

(End cutting path id: path294)


(Footer)
M5
G00 X0.0000 Y0.0000
M2
(Using default footer. To add your own footer create file "footer" in the output dir.)
(end)
%