%
(Header)
(Generated by gcodetools from Inkscape.)
(Using default header. To add your own header create file "header" in the output dir.)
M3
(Header end.)
G21 (All units in mm)

(Start cutting path id: path112)
(Change tool to Default tool)

G00 Z0.300000
G00 X21.973920 Y21.088960

G01 Z-0.300000 F100.0(Penetrate)
G03 X18.532416 Y23.652087 Z-0.300000 I-7.572501 J-6.575566 F15000.000000
G03 X13.846080 Y24.662080 Z-0.300000 I-4.686336 J-10.367227
G03 X5.830990 Y21.394254 Z-0.300000 I-0.000000 J-11.463333
G03 X2.125440 Y12.587200 Z-0.300000 I8.613174 J-8.807054
G03 X5.845981 Y3.874325 Z-0.300000 I12.062309 J0.000000
G03 X13.846080 Y0.662080 Z-0.300000 I8.000099 J8.356007
G03 X18.555130 Y1.659111 Z-0.300000 I0.000000 J11.619108
G03 X21.973920 Y4.184320 Z-0.300000 I-3.966354 J8.946798
G00 Z0.300000

(End cutting path id: path112)


(Footer)
M5
G00 X0.0000 Y0.0000
M2
(Using default footer. To add your own footer create file "footer" in the output dir.)
(end)
%