%
(Header)
(Generated by gcodetools from Inkscape.)
(Using default header. To add your own header create file "header" in the output dir.)
M3
(Header end.)
G21 (All units in mm)

(Start cutting path id: path94)
(Change tool to Default tool)

G00 Z0.300000
G00 X1.933440 Y0.662080

G01 Z-0.300000 F100.0(Penetrate)
G01 X14.653440 Y34.262080 Z-0.300000 F15000.000000
G01 X27.373440 Y0.662080 Z-0.300000
G00 Z0.300000

(End cutting path id: path94)


(Start cutting path id: path94)
(Change tool to Default tool)

G00 Z0.300000
G00 X5.629440 Y10.454080

G01 Z-0.300000 F100.0(Penetrate)
G02 X13.873542 Y10.457450 Z-0.300000 I4.307003 J-452.408164 F15000.000000
G03 X23.666880 Y10.454080 Z-0.300000 I5.098298 J585.844701
G00 Z0.300000

(End cutting path id: path94)


(Footer)
M5
G00 X0.0000 Y0.0000
M2
(Using default footer. To add your own footer create file "footer" in the output dir.)
(end)
%