%
(Header)
(Generated by gcodetools from Inkscape.)
(Using default header. To add your own header create file "header" in the output dir.)
M3
(Header end.)
G21 (All units in mm)

(Start cutting path id: path130)
(Change tool to Default tool)

G00 Z0.300000
G00 X4.285440 Y34.262080

G01 Z-0.300000 F100.0(Penetrate)
G01 X4.285440 Y0.662080 Z-0.300000 F15000.000000
G01 X8.487840 Y0.662080 Z-0.300000
G03 X17.110086 Y1.998761 Z-0.300000 I-0.000000 J28.477190
G03 X19.975200 Y3.388000 Z-0.300000 I-3.362057 J10.582850
G03 X26.949401 Y13.717872 Z-0.300000 I-8.303465 J13.125323
G03 X19.975200 Y31.231840 Z-0.300000 I-17.456727 J3.194168
G03 X15.078923 Y33.644445 Z-0.300000 I-8.463565 J-11.001745
G03 X10.353120 Y34.262080 Z-0.300000 I-4.725803 J-17.770802
G01 X4.285440 Y34.262080 Z-0.300000
G00 Z0.300000

(End cutting path id: path130)


(Footer)
M5
G00 X0.0000 Y0.0000
M2
(Using default footer. To add your own footer create file "footer" in the output dir.)
(end)
%