%
(Header)
(Generated by gcodetools from Inkscape.)
(Using default header. To add your own header create file "header" in the output dir.)
M3
(Header end.)
G21 (All units in mm)

(Start cutting path id: path142)
(Change tool to Default tool)

G00 Z0.300000
G00 X22.430880 Y0.662080

G01 Z-0.300000 F100.0(Penetrate)
G01 X4.237440 Y0.662080 Z-0.300000 F15000.000000
G01 X4.237440 Y34.262080 Z-0.300000
G01 X22.429440 Y34.262080 Z-0.300000
G00 Z0.300000

(End cutting path id: path142)


(Start cutting path id: path142)
(Change tool to Default tool)

G00 Z0.300000
G00 X4.237440 Y16.886080

G01 Z-0.300000 F100.0(Penetrate)
G02 X13.422598 Y16.881729 Z-0.300000 I4.321145 J-572.984649 F15000.000000
G03 X20.557440 Y16.886080 Z-0.300000 I3.328323 J392.076228
G00 Z0.300000

(End cutting path id: path142)


(Footer)
M5
G00 X0.0000 Y0.0000
M2
(Using default footer. To add your own footer create file "footer" in the output dir.)
(end)
%