%
(Header)
(Generated by gcodetools from Inkscape.)
(Using default header. To add your own header create file "header" in the output dir.)
M3
(Header end.)
G21 (All units in mm)

(Start cutting path id: path166)
(Change tool to Default tool)

G00 Z0.300000
G00 X19.261440 Y17.846080

G01 Z-0.300000 F100.0(Penetrate)
G01 X30.253440 Y17.846080 Z-0.300000 F15000.000000
G01 X30.253440 Y4.838080 Z-0.300000
G02 X21.646544 Y1.411124 Z-0.300000 I-13.735771 J21.976068
G02 X8.279520 Y4.838080 Z-0.300000 I-3.138068 J15.542672
G02 X2.716578 Y14.867872 Z-0.300000 I10.413359 J12.333300
G02 X8.279520 Y30.751360 Z-0.300000 I18.033176 J2.600074
G02 X16.592194 Y34.944048 Z-0.300000 I11.267101 J-12.001884
G02 X30.560160 Y30.538720 Z-0.300000 I2.813954 J-15.424570
G00 Z0.300000

(End cutting path id: path166)


(Footer)
M5
G00 X0.0000 Y0.0000
M2
(Using default footer. To add your own footer create file "footer" in the output dir.)
(end)
%