%
(Header)
(Generated by gcodetools from Inkscape.)
(Using default header. To add your own header create file "header" in the output dir.)
M3
(Header end.)
G21 (All units in mm)

(Start cutting path id: path276)
(Change tool to Default tool)

G00 Z0.300000
G00 X4.285440 Y0.662080

G01 Z-0.300000 F100.0(Penetrate)
G01 X4.285440 Y16.201600 Z-0.300000 F15000.000000
G01 X4.285440 Y34.262080 Z-0.300000
G01 X11.240160 Y34.262080 Z-0.300000
G02 X20.225233 Y30.523877 Z-0.300000 I-0.000000 J-12.667274
G02 X22.372080 Y25.262080 Z-0.300000 I-5.239105 J-5.206451
G02 X20.145658 Y19.607410 Z-0.300000 I-8.454991 J0.063356
G02 X12.533280 Y16.262080 Z-0.300000 I-7.612378 J6.988407
G01 X4.284960 Y16.262080 Z-0.300000
G00 Z0.300000

(End cutting path id: path276)


(Footer)
M5
G00 X0.0000 Y0.0000
M2
(Using default footer. To add your own footer create file "footer" in the output dir.)
(end)
%